!!!!SEGMENT: pl-wn--mus-iii-83-735-cim_zarebski-juliusz--divertissement-a-la-polonaise-op-12-no-2.krn
!!!cenid: 18xx:3560
!!!COM: Zarębski, Juliusz
!!!COM-rismID:
!!!CDT:
!!!CNT:
!!!OTL: Divertissement à la polonaise op. 12 no. 2
!!!PDT:
!!!AGN:
!!!SMS-siglum: PL-Wn
!!!SMS-shelfmark: Mus.III.83.735 Cim.
!!!SMS-shelfwork: W
!!!SMS-variant:
!!!SMS-altvar:
!!!NIFC-rismSourceID:
!!!NIFC-islandoraID:
!!!URL-pdf-islandora:
!!!URL-scan: https://polona.pl/item/divertissement-a-la-polonaise-deux-morceaux-a-quatre-mains-pour-le-piano-sur-des,NTM4MjU5NjU/4/#info:metadata @EN{Scan on Polona} @PL{Skany w portalu Polona}
!!!ONB-nifc:
!!!OMD: Allegro ma non troppo.
!!!AIN: 2 piano
!!!key: g
**kern	**kern	**fing	**dynam	**kern	**kern	**fing	**dynam
*part2	*part2	*part2	*part2	*part1	*part1	*part1	*part1
*staff4	*staff3	*staff3	*	*staff2	*staff1	*staff1	*
*I"SECONDO.	*I"SECONDO.	*	*	*I"PRIMO.	*I"PRIMO.	*	*
*Ipiano	*Ipiano	*	*	*Ipiano	*Ipiano	*	*
*ICklav	*ICklav	*	*	*ICklav	*ICklav	*	*
*clefF4	*clefF4	*	*	*clefG2	*clefG2	*	*
*k[b-e-]	*k[b-e-]	*	*	*k[b-e-]	*k[b-e-]	*	*
*g:	*g:	*	*	*g:	*g:	*	*
*M2/4	*M2/4	*	*	*M2/4	*M2/4	*	*
=1	=1	=1	=1	=1	=1	=1	=1
!LO:TX:t=P:problem=mixed beam	!	!	!	!	!LO:TX:b:t=8	!	!
8BBB-'/L 8BB-	2ryy	.	f	0r	0r	.	.
8F>'>\ 8B-> 8d>	.	.	.	.	.	.	.
8B->'>\ 8d> 8f>	.	.	.	.	.	.	.
8FFF'/J 8FF	.	.	.	.	.	.	.
=2	=2	=2	=2	=2	=2	=2	=2
!LO:TX:t=P:problem=mixed beam	!	!	!	!	!	!	!
8BBB-'/L 8BB-	2ryy	.	.	.	.	.	.
8G-X>'>\ 8B-> 8e->	.	.	.	.	.	.	.
8B->'>\ 8e-> 8g-X>	.	.	.	.	.	.	.
8FFF'/J 8FF	.	.	.	.	.	.	.
=3	=3	=3	=3	=3	=3	=3	=3
!LO:TX:t=P:problem=mixed beam	!	!	!	!	!	!	!
8BBB-'/L 8BB-	2ryy	.	.	.	.	.	.
8F>'>\ 8B-> 8d>	.	.	.	.	.	.	.
8B->'>\ 8d> 8f>	.	.	.	.	.	.	.
8FFF'/J 8FF	.	.	.	.	.	.	.
=4	=4	=4	=4	=4	=4	=4	=4
!LO:TX:t=P:problem=mixed beam	!	!	!	!	!	!	!
8BBB-'/L 8BB-	2ryy	.	.	.	.	.	.
8G-X>'>\ 8B-> 8e->	.	.	.	.	.	.	.
8B->'>\ 8e-> 8g-X>	.	.	.	.	.	.	.
8FFF'/J 8FF	.	.	.	.	.	.	.
=5	=5	=5	=5	=5	=5	=5	=5
!LO:TX:t=P:problem=mixed beam	!	!	!	!	!	!	!
8BBB-'/L 8BB-	2ryy	.	.	0r	0r	.	.
8F>'>\ 8B-> 8d>	.	.	.	.	.	.	.
8B->'>\ 8d> 8f>	.	.	.	.	.	.	.
8FFF'/J 8FF	.	.	.	.	.	.	.
=6	=6	=6	=6	=6	=6	=6	=6
!LO:TX:t=P:problem=mixed beam	!	!	!	!	!	!	!
!	!LO:TX:b:t=dim._ _:ext=ud:problem=dynamics with extention lines	!	!LO:HP:t=dim._ _:ext=ud	!	!	!	!
8BBB-'/L 8BB-	2ryy	.	>	.	.	.	.
8En>'>\ 8Gn> 8d-X>	.	.	.	.	.	.	.
8G>'>\ 8d-> 8en>	.	.	.	.	.	.	.
8FFF'/J 8FF	.	.	.	.	.	.	.
!LO:LB:g=original	!LO:LB:g=original	!	!	!	!	!	!
=7	=7	=7	=7	=7	=7	=7	=7
!LO:TX:t=P:problem=mixed beam	!	!	!	!	!	!	!
8BBB-'/L 8BB-	2ryy	.	.	.	.	.	.
8D>'>\ 8G-X> 8c>	.	.	.	.	.	.	.
8G->'>\ 8c> 8d>	.	.	.	.	.	.	.
8FFF'/J 8FF	.	.	.	.	.	.	.
=8	=8	=8	=8	=8	=8	=8	=8
!LO:TX:t=P:problem=mixed beam	!	!	!	!	!	!	!
8BBB-'/L 8BB-	2ryy	.	.	.	.	.	.
8D>'>\ 8B->	.	.	.	.	.	.	.
8B->'>\ 8d>	.	.	.	.	.	.	.
8FFF#X'/J 8FF#X	.	.	.	.	.	.	.
=9	=9	=9	=9	=9	=9	=9	=9
8GGG/ 8GG	8r	.	p	4g/ 4b-	(8dd\L	.	p
!	!LO:TX:b:i:t=sempre staccato.	!	!	!	!	!	!
8r	8D\L 8G 8B-	.	.	.	8gg\J)	.	.
4r	8G\ 8B- 8d	.	.	8g'/L 8b-	8dd'\L	.	.
.	8G\J 8B- 8d	.	.	8g'/J 8b-	8dd'\J	.	.
=10	=10	=10	=10	=10	=10	=10	=10
8GGG/ 8GG	8r	.	.	4g/ 4b-	(8dd\L	.	.
8r	8G'\ 8B-	.	.	.	16cc#X\L	.	.
.	.	.	.	.	16dd\JJ	.	.
4r	4F#X^\ 4c 4d	.	.	4f#X^/ 4a	8ccn^\L 8ee-	.	.
.	.	.	.	.	8dd'\J)	.	.
=11	=11	=11	=11	=11	=11	=11	=11
8GGG/ 8GG	8r	.	.	4g/ 4b-	(8dd\L	.	.
8r	8D\L 8G 8B-	.	.	.	8gg\J)	.	.
4r	8G\ 8B- 8d	.	.	8g'/L 8b-	8dd'\L	.	.
.	8G\J 8B- 8d	.	.	8g'/J 8b-	8dd'\J	.	.
=12	=12	=12	=12	=12	=12	=12	=12
8GGG/ 8GG	8r	.	.	4g/ 4b-	(8dd\L	.	.
8r	8G'\ 8B-	.	.	.	16cc#X\L	.	.
.	.	.	.	.	16dd\JJ	.	.
4r	4F#X^\ 4c 4d	.	.	4f#X^/ 4a	8ccn^\L 8ee-	.	.
.	.	.	.	.	8dd'\J)	.	.
=13	=13	=13	=13	=13	=13	=13	=13
8GGG/ 8GG	8r	.	.	8g'/L	8b-'\L 8dd	.	.
8r	8D\L 8G 8B-	.	.	8g'/J	8b-'\ 8dd	.	.
4r	8E-\ 8G 8c	.	.	4g^/	(8.cc^\	.	.
.	8G\J 8c 8e-	.	.	.	.	.	.
.	.	.	.	.	16a\Jk	.	.
!LO:LB:g=original	!LO:LB:g=original	!	!	!LO:LB:g=original	!LO:LB:g=original	!	!
=14	=14	=14	=14	=14	=14	=14	=14
8GGG/ 8GG	8r	.	.	8g'/L	8b-'\L)	.	.
8r	8D\L 8G 8B-	.	.	8g'/J	8b-'\	.	.
4r	8E-\ 8G 8c	.	.	4g^/	(8.cc^\	.	.
.	8G\J 8c 8e-	.	.	.	.	.	.
.	.	.	.	.	16a\Jk	.	.
=15	=15	=15	=15	=15	=15	=15	=15
8GGG/ 8GG	8r	.	.	8g'/L	8b-'/L)	.	.
8r	8d\L	.	.	8g'/J	8b-'/	.	.
4r	8c#X\ 8en	.	.	4g/	(8.a^>/	.	.
.	8cn\J 8e-X	.	.	.	.	.	.
.	.	.	.	.	16f#X/Jk	.	.
=16	=16	=16	=16	=16	=16	=16	=16
8GGG/ 8GG	8r	.	.	4r	16g\LL	.	.
.	.	.	.	.	16a\	.	.
8r	8D\L 8G 8B-	.	.	.	16b-\	.	.
.	.	.	.	.	16cc\JJ	.	.
4r	8G\ 8B- 8d	.	.	8g'/L	8b-'\L) 8dd	.	.
.	8G\J 8B- 8d	.	.	8g'/J	8b-'\J 8dd	.	.
=17	=17	=17	=17	=17	=17	=17	=17
8DDD/ 8DD	8r	.	.	8r	8b-'\L 8dd	.	.
8r	8D\L 8G 8B-	.	.	8d'/L 8g	8b-'\ 8dd	.	.
4r	8E-\ 8G 8c	.	.	8e-'/ 8g	(8.cc^\	.	.
.	8E-\J 8G 8c	.	.	8e-'/J 8g	.	.	.
.	.	.	.	.	16a\Jk	.	.
=18	=18	=18	=18	=18	=18	=18	=18
8DDD/ 8DD	8r	.	.	8r	8b-'\L)	.	.
8r	8D\L 8G 8B-	.	.	8d'/L 8g	8b-'\	.	.
4r	8E-\ 8G 8c	.	.	8e-'/ 8g	(8.cc^\	.	.
.	8E-\J 8G 8c	.	.	8e-'/J 8g	.	.	.
.	.	.	.	.	16a\Jk	.	.
=19	=19	=19	=19	=19	=19	=19	=19
8DDD/ 8DD	8r	.	.	4r	8b-'\L)	.	.
8r	8D\L 8G 8B-	.	.	.	8b-'\J	.	.
4r	8En\ 8G 8c#X	.	.	(>8.a^>/L	4r	.	.
.	8E\J 8G 8c#	.	.	.	.	.	.
.	.	.	.	16f#X/Jk	.	.	.
!	!	!	!	!LO:LB:g=original	!LO:LB:g=original	!	!
=20	=20	=20	=20	=20	=20	=20	=20
8GGG/ 8GG	8r	.	.	16g\LL	4r	.	.
.	.	.	.	16a\	.	.	.
8r	8E-X\L 8G 8cn	.	.	16b-\	.	.	.
.	.	.	.	16cc\JJ	.	.	.
!	!	!	!	!	!LO:TUP:a	!	!
4r	8D\J 8G 8B-	.	.	8dd'\)	(20gg\LL	.	.
.	.	.	.	.	20aa\	.	.
.	.	.	.	.	20bb-\	.	.
.	8r	.	.	8r	.	.	.
.	.	.	.	.	20ccc\	.	.
.	.	.	.	.	20ddd\JJ	.	.
!LO:LB:g=original	!LO:LB:g=original	!	!	!	!	!	!
=21	=21	=21	=21	=21	=21	=21	=21
!	!	!	!	!LO:TUP:a	!	!	!
8GGG/ 8GG	8G\ 8B- 8e-	.	.	(20g\LL	8eee-'\)	.	.
.	.	.	.	20a\	.	.	.
.	.	.	.	20b-\	.	.	.
8r	8r	.	.	.	8r	.	.
.	.	.	.	20cc\	.	.	.
.	.	.	.	20dd\JJ	.	.	.
!	!	!	!	!	!LO:TUP:a	!	!
4r	4r	.	.	8ee-'\)	(20gg\LL	.	.
.	.	.	.	.	20aa\	.	.
.	.	.	.	.	20bb-\	.	.
.	.	.	.	8r	.	.	.
.	.	.	.	.	20ccc\	.	.
.	.	.	.	.	20ddd\JJ	.	.
=22	=22	=22	=22	=22	=22	=22	=22
!	!	!	!	!LO:TUP:a	!	!	!
8GGG/ 8GG	8G\ 8B- 8e-	.	.	(20g\LL	8eee-'\)	.	.
.	.	.	.	20a\	.	.	.
.	.	.	.	20b-\	.	.	.
8r	8r	.	.	.	8r	.	<
.	.	.	.	20cc\	.	.	.
.	.	.	.	20dd\JJ	.	.	.
!	!	!	!	!	!LO:TUP:a	!	!
4r	4r	.	.	8ee-'\)	(20gg\LL	.	.
.	.	.	.	.	20aa\	.	.
.	.	.	.	.	20bb-\	.	.
.	.	.	.	8r	.	.	.
.	.	.	.	.	20ccc\	.	.
.	.	.	.	.	20ddd\JJ)	.	[[
=23	=23	=23	=23	=23	=23	=23	=23
2r	4d-X^\ 4e-X	.	.	(16ee-^\LL	(16eee-^\LL	.	.
.	.	.	.	16dd-X\	16ddd-X\	.	.
.	.	.	.	16cc\	16ccc\	.	.
.	.	.	.	16b-\JJ	16bb-\JJ	.	.
.	4r	.	.	16a-X/LL	16aa-X\LL	.	>
.	.	.	.	16g/	16gg\	.	.
.	.	.	.	16f#X/	16ff#X\	.	.
.	.	.	.	16e-/JJ	16ee-\JJ	.	.
!	!	!	!	!LO:LB:g=original	!LO:LB:g=original	!	!
=24	=24	=24	=24	=24	=24	=24	=24
!	!LO:TX:b:t=1	!	!	!	!	!	!
2r	2r	.	.	16f#X/LL	16ff#X\LL	.	.
.	.	.	.	16e-/	16ee-\	.	.
.	.	.	.	16f#/	16ff#\	.	.
.	.	.	.	16g/JJ	16gg\JJ	.	.
.	.	.	.	16an/LL	16aan\LL	.	.
.	.	.	.	16b-/	16bb-\	.	.
.	.	.	.	16cc/	16ccc\	.	.
.	.	.	.	16cc#X/JJ)	16ccc#X\JJ)	.	]]
=25	=25	=25	=25	=25	=25	=25	=25
*	*	*	*	*	*8va	*	*
*	*^	*	*	*	*	*	*
8r	4g/	8G\L	.	.	(8b-\L 8dd	(8bb-\L 8ddd	.	.
8GGG'/ 8GG	.	8B-\J 8d	.	.	8gg'\J)	8ggg'\J)	.	.
8r	4f#X/	8F#X\L	.	.	8b-'\L 8dd	8bb-'\L 8ddd	.	.
8DDD'/ 8DD	.	8B-\J 8d	.	.	8b-'\J 8dd	8bb-'\J 8ddd	.	.
=26	=26	=26	=26	=26	=26	=26	=26	=26
8r	4fn/	8Fn\L	.	.	(8b-\L 8dd	(8bb-\L 8ddd	.	.
8GGG'/ 8GG	.	8B-\J 8d	.	.	16cc#X\L	16ccc#X\L	.	.
.	.	.	.	.	16dd\JJ	16ddd\JJ	.	.
8r	4f#X/	8F#X\L	.	.	8a^\L 8ccn 8ee-	8aa^\L 8cccn 8eee-	.	.
8DDD'/ 8DD	.	8B-\J 8d	.	.	8dd\J)	8ddd\J)	.	.
=27	=27	=27	=27	=27	=27	=27	=27	=27
8r	4g/	8G\L	.	.	(8b-\L 8dd	(8bb-\L 8ddd	.	.
8GGG'/ 8GG	.	8B-\J 8d	.	.	8gg'\J)	8ggg'\J)	.	.
8r	4f#X/	8F#X\L	.	.	8b-\L 8dd	8bb-'\L 8ddd	.	.
8DDD'/ 8DD	.	8B-\J 8d	.	.	8b-'\J 8dd	8bb-'\J 8ddd	.	.
*	*v	*v	*	*	*	*	*	*
*	*	*	*	*	*X8va	*	*
=28	=28	=28	=28	=28	=28	=28	=28
*	*^	*	*	*	*	*	*
8r	4fn/	8Fn\L	.	.	(8b-\L 8dd	(8bb-\L 8ddd	.	.
8GGG'/ 8GG	.	8B-\J 8d	.	.	16cc#X\L	16ccc#X\L	.	.
.	.	.	.	.	16dd\JJ	16ddd\JJ	.	.
8r	4f#X/	8F#X\L	.	.	8a\L 8ccn 8ee-	8aa\L 8cccn 8eee-	.	.
8DDD'/ 8DD	.	8B-\J 8d	.	.	8dd\J)	8ddd\J)	.	.
*	*v	*v	*	*	*	*	*	*
!LO:LB:g=original	!LO:LB:g=original	!	!	!	!	!	!
=29	=29	=29	=29	=29	=29	=29	=29
8BBB-'/L 8BB-	8r	.	.	8b-'\L 8dd	8ff'\L 8bb- 8ddd	.	.
8F'/J	8B-'\ 8d	.	.	8b-'\J 8dd	8ff'\J 8bb- 8ddd	.	.
4G-X^\	(16B-^\LL 16e-	.	.	4b-\ 4ee-	(8.gg-X^\L 8.ccc	.	.
.	16g-X\	.	.	.	.	.	.
.	16f\	.	.	.	.	.	.
.	16e-\JJ)	.	.	.	16aa\Jk	.	.
!	!	!	!	!LO:LB:g=original	!LO:LB:g=original	!	!
=30	=30	=30	=30	=30	=30	=30	=30
8BBB-'/L 8BB-	8r	.	.	8b-'\L 8dd	8ff'\L) 8bb-	.	.
8F'/J	8B-'\ 8d	.	.	8b-'\J 8dd	8ff'\J 8bb-	.	.
4G-X^\	(16B-^\LL 16e-	.	.	4b-^\ 4ee-	(8.gg-X^\L 8.ccc	.	.
.	16g-X\	.	.	.	.	.	.
.	16f\	.	.	.	.	.	.
.	16e-\JJ)	.	.	.	16aa\Jk	.	.
=31	=31	=31	=31	=31	=31	=31	=31
8BBB-'/L 8BB-	8r	.	.	8b-'\L 8dd	8ff'\L) 8bb-	.	.
8F'/J	8B-'\ 8d	.	.	8b-'\J 8dd	8ff'\J 8bb-	.	.
4G-X^\	(16B-^\LL 16e-	.	.	4cc^\ 4ee-	(8.ff#X^\L 8.aa	.	.
.	16g-X\	.	.	.	.	.	.
.	16f\	.	.	.	.	.	.
.	16e-\JJ)	.	.	.	16ff#\Jk	.	.
=32	=32	=32	=32	=32	=32	=32	=32
8BBB-'/ 8BB-	8r	.	.	(16g\LL	16gg\LL	.	.
.	.	.	.	16a\	16aa\	.	.
8r	8e-'\L 8gn	.	.	16b-\	16bb-\	.	.
.	.	.	.	16cc\JJ	16ccc\JJ	.	.
4r	8d'\ 8f	.	.	8dd'\L)	8ddd'\L)	.	.
.	8f'\J 8a-X	.	.	8dd'\J	8ddd'\J	.	.
=33	=33	=33	=33	=33	=33	=33	=33
!	!	!	!LO:HP:t=poco cresc.	!	!	!	!LO:HP:t=poco cresc.
8CC'/ 8C	8r	.	<	8bn'\L 8dd	8ff'\L 8ddd	.	<
8r	8G'\	.	.	8b'\J 8dd	8ff'\J 8ddd	.	.
4r	(16A\LL	.	.	4cc^\	(8.ee-^\L 8.ccc	.	.
.	16e-\	.	.	.	.	.	.
.	16f\	.	.	.	.	.	.
.	16e-\JJ)	.	.	.	16aa\Jk	.	.
=34	=34	=34	=34	=34	=34	=34	=34
8DD/ 8D	8r	.	.	8b-X'\L	8dd'\L) 8bb-X	.	.
8r	8G'\	.	.	8b-'\J	8dd'\J 8bb-	.	.
4r	(16F\LL	.	.	4cc^\	(8.ee-^\L 8.ccc	.	.
.	16c\	.	.	.	.	.	.
.	16d\	.	.	.	.	.	.
.	16c\JJ)	.	.	.	16aa\Jk	.	.
=35	=35	=35	=35	=35	=35	=35	=35
8DD/ 8D	8r	.	.	8b-'\L	8cc#X'\L) 8bb-	.	.
8r	8c#X'\L 8en	.	.	8b-'\J	8cc#'\J 8bb-	.	.
4r	8cn'\ 8e-X	.	.	4a^/	8.ccn\L 8.aa	.	.
.	8c'\J 8d	.	.	.	.	.	.
.	.	.	.	.	16ff#X\Jk	.	.
!LO:PB:g=original	!LO:PB:g=original	!	!	!LO:PB:g=original	!LO:PB:g=original	!	!
=36	=36	=36	=36	=36	=36	=36	=36
[2GGG/ [2GG	8r	.	mf	[4g^/	[4gg^\	.	mf
.	8d'\L 8f	.	.	.	.	.	.
.	8B-'\ 8e-	.	.	8g/L]	8gg\L]	.	.
.	.	.	.	(<8qa/	(<8qaa/	.	.
.	8Bn'\J 8d	.	.	16g/L)	16gg\L)	.	.
.	.	.	.	16f#X/JJ	16ff#X\JJ	.	.
=37	=37	=37	=37	=37	=37	=37	=37
2GGG/_ 2GG_	8r	.	.	[4g^/	[4gg^\	.	.
.	8Bn'\L 8d	.	.	.	.	.	.
.	8G'\ 8c	.	.	8g/L]	8gg\L]	.	.
.	.	.	.	(<8qa/	(<8qaa/	.	.
.	[8A-X\J [8c	.	.	16g/L)	16gg\L)	.	.
.	.	.	.	16f#X/JJ	16ff#X\JJ	.	.
=38	=38	=38	=38	=38	=38	=38	=38
2GGG/_ 2GG_	8A-\] 8c]	.	.	(16g/LL	(16gg\LL	.	.
.	.	.	.	16a/	16aa\	.	.
.	4G^\ 4Bn	.	.	16g/	16gg\	.	>
.	.	.	.	16f#X/JJ	16ff#X\JJ	.	.
.	.	.	.	16g/LL	8gg'\)	.	.
.	.	.	.	16a/	.	.	.
.	[8F#X^\ [8d	.	.	16g/	8r	.	.
.	.	.	.	16f#X/JJ	.	.	.
=39	=39	=39	=39	=39	=39	=39	=39
2GGG/] 2GG]	8F#X\] 8d]	.	>	16g/LL	(16gg\LL	.	.
.	.	.	.	16a/	16aa\	.	.
.	4Fn^\ 4d-X	.	.	16g/	16gg\	.	.
.	.	.	.	16f#X/JJ	16ff#X\JJ	.	.
.	.	.	.	16g/LL	8gg'\)	.	]
.	.	.	.	16f#/	.	.	.
.	8E-X^\ 8cn	.	]]	16g/	8r	.	.
.	.	.	.	16a/JJ)	.	.	.
=40	=40	=40	=40	=40	=40	=40	=40
4r	8B-'\L	.	p	8b-'/L	4r	.	p
.	8F'\J	.	.	8fn'/J	.	.	.
4BBB-^>/ 4BB-	4F^\ 4B- 4d	.	.	4f^>/	4b-^\ 4dd	.	.
=41	=41	=41	=41	=41	=41	=41	=41
4r	8B-'\L	.	.	8b-'/L	4r	.	.
.	8F'\J	.	.	8f'/J	.	.	.
4AAA-X^>/ 4AA-X	4F^\ 4B- 4d	.	.	4f^>/	4b-^\ 4dd	.	.
=42	=42	=42	=42	=42	=42	=42	=42
4r	8Bn'\L	.	.	8bn'/L	4r	.	.
.	8F'\J	.	.	8f'/J	.	.	.
4GGG^>/ 4GG	4F^\ 4B 4d	.	.	4f^>/	4bn^\ 4dd	.	.
=43	=43	=43	=43	=43	=43	=43	=43
4CC/ 4C	16En\LL 16c	.	.	(4g/ 4b-X	(16cc\LL	.	.
.	16B-\	.	.	.	16dd\	.	.
.	16A\	.	.	.	16een\	.	.
.	16G\JJ	.	.	.	16gg\JJ	.	.
4FFF/ 4FF	4E-X\ 4A	.	.	4f/) 4a	4ff\)	.	.
!LO:LB:g=original	!LO:LB:g=original	!	!	!	!	!	!
=44	=44	=44	=44	=44	=44	=44	=44
!	!LO:TX:b:i:t=scherzando.	!	!	!	!	!	!
4r	(32B-^\LLL	.	.	8r	8r	.	.
.	32c\	.	.	.	.	.	.
.	32B-\	.	.	.	.	.	.
.	32c\JJ	.	.	.	.	.	.
!	!	!	!	!	!LO:TX:b:i:t=scherzando	!	!
.	8B-'\J)	.	.	8b-'/L	8dd'\L 8ff	.	.
8BB-'/L	4r	.	.	8a'/	(16cc#X\L 16een	.	.
.	.	.	.	.	16gg\J	.	.
8BBB-'/J	.	.	.	8a-X'/J	8dd'\J) 8ff	.	.
=45	=45	=45	=45	=45	=45	=45	=45
4r	(32B-^\LLL	.	.	8r	8r	.	.
.	32c\	.	.	.	.	.	.
.	32B-\	.	.	.	.	.	.
.	32c\JJ	.	.	.	.	.	.
.	8B-'\J)	.	.	8b-'/L	8ee-X'\L 8gg	.	.
8E-'/L	4r	.	.	8an'/	(16dd\L 16ff#X	.	.
.	.	.	.	.	16aa\J	.	.
8EE-'/J	.	.	.	8g'/J	8ee-'\J) 8gg	.	.
=46	=46	=46	=46	=46	=46	=46	=46
8FF'/L	8r	.	.	(16g/LL	(16gg\LL	.	<
.	.	.	.	16a/	16aa\	.	.
8r	8B-'\L 8e-	.	.	16g/	16gg\	.	.
.	.	.	.	16f/JJ	16ff\JJ	.	.
8r	8A'\J 8e-	.	.	8ee-'\)	16eee-\LL	.	.
.	.	.	.	.	16aa\	.	[
8FF'/J	8r	.	.	8r	16ccc\	.	.
.	.	.	.	.	16gg\JJ	.	.
=47	=47	=47	=47	=47	=47	=47	=47
!	!LO:TX:t=P:problem=mixed beam	!	!	!	!LO:TX:t=P:problem=mixed beam	!	!LO:HP:b=2
8r	8F'\L 8B- 8d	.	.	4ryy	16ccc\LL	.	<
.	.	.	.	.	16bb-\	.	.
8ryy	8BBB-<'/J 8BB-<	.	.	.	16ff</	.	.
.	.	.	.	.	16dd</JJ	.	.
!	!	!	!	!LO:TX:t=P:problem=mixed beam	!	!	!
4r	4r	.	.	4ryy	16ff</LL	.	.
.	.	.	.	.	16bb-\	.	.
.	.	.	.	.	16ccc\	.	.
.	.	.	.	.	16ccc#X\JJ)	.	[[
!	!	!	!	!LO:LB:g=original	!LO:LB:g=original	!	!
=48	=48	=48	=48	=48	=48	=48	=48
8BBB-'/ 8BB-	8r	.	.	8dd'\L	8ddd'\L	.	mf
(16C/LL	(16c\LL	.	.	8dd'\J 8ff	8ddd'\J 8fff	.	.
16BB-/J	16B-\J	.	.	.	.	.	.
16AA/L	16A\L	.	.	8cc#X'\L 8een	(16ccc#X\LL 16eeen	.	.
16BB-/	16B-\	.	.	.	16ggg\J	.	.
16C/	16c\	.	.	8dd'\J 8ff	8ddd'\J) 8fff	.	.
16BB-/JJ)	16B-\JJ)	.	.	.	.	.	.
=49	=49	=49	=49	=49	=49	=49	=49
*	*	*	*	*	*8va	*	*
8EE-'/ 8E-	8r	.	.	8r	8r	.	.
(16C/LL	(16c\LL	.	.	8ee-X'\L 8gg	8eee-X'\L 8ggg	.	.
16BB-/J	16B-\J	.	.	.	.	.	.
16AA/L	16A\L	.	.	8dd'\ 8ff#X	(16ddd\L 16fff#X	.	.
16BB-/	16B-\	.	.	.	16aaa\J	.	.
16C/	16c\	.	.	8ee-'\J 8gg	8eee-'\J) 8ggg	.	.
16BB-/JJ)	16B-\JJ)	.	.	.	.	.	.
*	*clefG2	*	*	*	*	*	*
!LO:LB:g=original	!LO:LB:g=original	!	!	!	!	!	!
=50	=50	=50	=50	=50	=50	=50	=50
!	!LO:TX:t=P:problem=mixed beam	!	!	!	!	!	!
2ryy	8g'\L 8b- 8ee-	.	.	(16gg\LL	16ggg\LL	.	.
.	.	.	.	16aa\	16aaa\	.	.
.	8f<'</	.	.	16gg\	16ggg\	.	.
.	.	.	.	16ffn\JJ	16fffn\JJ	.	.
.	8c<'</	.	.	16eee-'\)	16eeee-\LL	.	.
.	.	.	.	16r	16aaa\	.	.
.	8b-'\J 8ee- 8gg	.	.	8r	16cccc\	.	.
.	.	.	.	.	16ggg\JJ	.	.
*	*	*	*	*	*X8va	*	*
=51	=51	=51	=51	=51	=51	=51	=51
8r	8g'/L 8b- 8ee-	.	.	16fff\LL	4r	.	.
.	.	.	.	16eee-\	.	.	.
8c'\L	8r	.	.	16ddd\	.	.	.
.	.	.	.	16ccc\JJ	.	.	.
8F'\J	8r	.	.	4r	16eee-\LL	.	.
.	.	.	.	.	16aa\	.	.
8r	8e-'/J 8g 8b-	.	.	.	16ccc\	.	.
.	.	.	.	.	16gg\JJ	.	.
=52	=52	=52	=52	=52	=52	=52	=52
8r	8B-/ 8e- 8g	.	<	16ff\LL	4r	.	<
.	.	.	.	16ee-\	.	.	.
8F'\L	8r	.	.	16dd\	.	.	.
.	.	.	.	16cc\JJ	.	.	.
8C'\J	8r	.	.	16dd\LL	8r	.	.
.	.	.	.	16ee-\JJ	.	.	.
8r	(16a/LL	.	.	8r	16ff\LL	.	.
.	16g/JJ	.	.	.	16gg\JJ	.	.
!	!	!	!	!LO:LB:g=original	!LO:LB:g=original	!	!
=53	=53	=53	=53	=53	=53	=53	=53
(16F\LL	16f/LL	.	.	8r	16aa\LL	.	<
16E-\	16e-/	.	.	.	16bb-\	.	.
16D\	16d/	.	.	16cc\LL	16ccc\	.	.
16C\JJ	16c/JJ	.	.	16dd\JJ	16ddd\JJ	.	.
*	*clefF4	*	*	*	*	*	*
*	*	*	*	*	*8va	*	*
16BB-/LL	16B-\LL	.	.	16ee-\LL	16eee-\LL	.	.
16AA/	16A\	.	.	16ff\	16fff\	.	.
16GG/	16G\	.	.	16gg\	16ggg\	.	.
16FF/JJ)	16F\JJ)	.	.	16aa\JJ	16aaa\JJ	.	[[
=54	=54	=54	=54	=54	=54	=54	=54
!	!LO:TX:t=P:problem=mixed beam	!	!	!	!	!	!
4ryy	16B-\LL	3	f	8bb-'\L	8bbb-'\L	.	f
.	16B-\J	2	.	.	.	.	.
.	8F<'/J	.	.	8ff'\J	8fff'\J	.	.
4BBB-^>/ 4BB-	4F^\ 4B- 4d-X	.	.	4dd-X^\	4ddd-X^\ 4dddd-X	.	.
=55	=55	=55	=55	=55	=55	=55	=55
!	!LO:TX:t=P:problem=mixed beam	!	!	!	!	!	!
4ryy	16B-\LL	3	.	8b-'/L	8bb-'\L 8bbb-	.	.
.	16B-\J	2	.	.	.	.	.
.	8F<'</J	.	.	8f'/J	8ff'\J 8fff	.	.
4AAA-X^>/ 4AA-X	4F^\ 4B- 4d-X	.	.	4dd-X^\	4ddd-X^\ 4dddd-X	.	.
=56	=56	=56	=56	=56	=56	=56	=56
!	!LO:TX:t=P:problem=mixed beam	!	!	!	!	!	!
4ryy	16B-\LL	3	.	8b-'/L	8bb-'\L 8bbb-	.	.
.	16B-\J	2	.	.	.	.	.
.	8F<'</J	.	.	8f'/J	8ff'\J 8fff	.	.
4GGG-X^>/ 4GG-X	4G-X^\ 4B- 4d-X	.	.	4dd-X^\	4ddd-X^\ 4dddd-X	.	.
!LO:LB:g=original	!LO:LB:g=original	!	!	!	!	!	!
=57	=57	=57	=57	=57	=57	=57	=57
4AAA-X^>/ 4AA-X	16G-X\LL 16c	.	.	16cc\LL	16ccc\LL 16cccc	.	.
.	16d-X\	.	.	16bb-\	16bbb-\	.	.
.	16e-X\	.	.	16aa-X\	16aaa-X\	.	.
.	16g-X\JJ	.	.	16gg-X\JJ	16ggg-X\JJ	.	.
4DD-X^>/ 4D-X	4A-X^\ 4d- 4f	.	.	4ff^\	4fff^\	.	.
=58	=58	=58	=58	=58	=58	=58	=58
(32BB-/LLL	8r	.	.	8r	8r	.	.
32C/	.	.	.	.	.	.	.
32BB-/	.	.	.	.	.	.	.
32C/JJ	.	.	.	.	.	.	.
8BB-'/J)	8dn'\L 8f	.	.	8b-'\L 8bb-	(16bbb-\LL	.	.
.	.	.	.	.	16cccc\J	.	.
8BB-'/L	(16c#X\L 16en	.	.	8an'\ 8aan	16aaan\L	.	.
.	16g\J	.	.	.	16bbb-\J	.	.
8BBB-'/J	8d'\J) 8f	.	.	8a-X'\J 8aa-X	8aaa-X'\J)	.	.
*	*	*	*	*	*X8va	*	*
*	*clefG2	*	*	*	*	*	*
!	!	!	!	!LO:LB:g=original	!LO:LB:g=original	!	!
=59	=59	=59	=59	=59	=59	=59	=59
*	*	*	*	*	*8va	*	*
!LO:TX:t=P:problem=mixed beam	!	!	!	!	!	!	!
(16EE-/LL	8r	.	.	8r	8r	.	.
16BB-/)	.	.	.	.	.	.	.
16B->'\ 16b->	8ryy	.	.	8ee-'\L 8gg	8eee-'\L 8ggg	.	.
16E-'/JJ	.	.	.	.	.	.	.
!	!LO:TX:t=P:problem=mixed beam	!	!	!	!	!	!
16A>'>\LL 16a>	4ryy	.	.	8dd'\ 8ff#X	(16ddd\L 16fff#X	.	.
16B-'/	.	.	.	.	16aaan\J	.	.
16G>'>\ 16g>	.	.	.	8ee-'\J 8gg	8eee-'\J) 8ggg	.	.
16E-'/JJ	.	.	.	.	.	.	.
=60	=60	=60	=60	=60	=60	=60	=60
8CC'/ 8C	8r	.	.	8r	8r	.	.
8r	8en'/L 8a-X	.	.	8cc'\L 8ccc	(16cccc\LL	.	.
.	.	.	.	.	16dddd\J	.	.
4r	(16d/L 16f	.	.	8bn'\ 8bbn	16bbbn\L	.	.
.	16a-/J	.	.	.	16cccc\J	.	.
.	8e'/J) 8g	.	.	8b-X'\J 8bb-X	8bbb-X'\J)	.	.
=61	=61	=61	=61	=61	=61	=61	=61
!LO:TX:t=P:problem=mixed beam	!	!	!	!	!	!	!
(16DD-X/LL 16D-X	8r	.	.	8r	8r	.	.
16AA-X/)	.	.	.	.	.	.	.
16d-X>'\ 16dd-X>	8ryy	.	.	8ff'\L 8aa-X	8fff'\L 8aaa-X	.	.
16D-'/JJ	.	.	.	.	.	.	.
!LO:TX:t=P:problem=mixed beam	!	!	!	!	!	!	!
16B->'\LL 16b->	4ryy	.	.	8een'\ 8gg	(16eeen\L 16ggg	.	.
16A-X'/	.	.	.	.	16bbb-\J	.	.
16A-X>'\ 16a-X>	.	.	.	8ff'\J 8aa-	8fff'\J) 8aaa-	.	.
16D-'/JJ	.	.	.	.	.	.	.
*	*	*	*	*	*X8va	*	*
!LO:LB:g=original	!LO:LB:g=original	!	!	!	!	!	!
=62	=62	=62	=62	=62	=62	=62	=62
!LO:TX:t=P:problem=mixed beam	!	!	!	!	!	!	!
(16DD-X/LL	8.ryy	.	p	2r	8r	.	p
16AA-X/	.	.	.	.	.	.	.
16D-X/	.	.	.	.	8ff'\L 8aa-X	.	.
16A-X>\JJ	16ryy	.	.	.	.	.	.
4r	16d-X/LL	.	.	.	(16een\L 16gg	.	.
.	16a-X/	.	.	.	16bb-\J	.	.
.	16b-/	.	.	.	8ff'\J) 8aa-	.	.
.	16a-/JJ)	.	.	.	.	.	.
=63	=63	=63	=63	=63	=63	=63	=63
4r	16d-X^/LL	.	.	2r	(16bn\LL 16dd	.	.
.	16a-X/	.	.	.	16ff\J	.	.
.	16d-/	.	.	.	8cc'\J) 8ee-X	.	.
.	16A-X/JJ	.	.	.	.	.	.
16D-X/LL	4r	.	.	.	8ee-'\L 8gg-X	.	.
16AA-X/	.	.	.	.	.	.	.
16DD-X/	.	.	.	.	8gg-'\J 8bb-	.	.
16AA-/JJ)	.	.	.	.	.	.	.
=64	=64	=64	=64	=64	=64	=64	=64
*	*	*	*	*	*8va	*	*
!LO:TX:t=P:problem=mixed beam	!	!	!	!	!	!	!
(16DD-X/LL	8r	.	mf	8r	8r	.	.
16AA-X/	.	.	.	.	.	.	.
16D-X/	16r	.	.	8ff'\L 8aa-X	8fff\L 8aaa-X	.	mf
16A-X>\JJ	16ryy	.	.	.	.	.	.
4r	16d-X/LL	.	.	8een'\ 8gg	(16eeen\L 16ggg	.	.
.	16a-X/	.	.	.	16bbb-\J	.	.
.	16b-/	.	.	8ff'\J 8aa-	8fff'\J) 8aaa-	.	.
.	(16a-/JJ	.	.	.	.	.	.
*	*	*	*	*	*X8va	*	*
!	!	!	!	!LO:LB:g=original	!LO:LB:g=original	!	!
=65	=65	=65	=65	=65	=65	=65	=65
*	*	*	*	*	*8va	*	*
4r	16d-X^/LL	.	.	8bn'\L 8dd	(16bbn\LL 16ddd	.	.
.	16a-X/	.	.	.	16fff\J	.	.
.	16d-/	.	.	8cc'\J 8ee-X	8ccc'\J) 8eee-X	.	.
.	16A-X/JJ	.	.	.	.	.	.
16D-X/LL	4r	.	.	8ee-'\L 8gg-X	8eee-'\L 8ggg-X	.	.
16AA-X/	.	.	.	.	.	.	.
16DD-X/	.	.	.	8gg-'\J 8bb-X	8ggg-'\J 8bbb-X	.	.
16AA-/JJ)	.	.	.	.	.	.	.
*	*	*	*	*	*X8va	*	*
=66	=66	=66	=66	=66	=66	=66	=66
*	*	*	*^	*	*	*	*
8DD-X'/ 8D-X	16r	.	.	.	2r	8r	.	.
.	(>16A-X/LL	.	<	.	.	.	.	.
!	!	!	!	!	!	!	!	!LO:HP:t=dim.
8r	16B-/	.	.	.	.	8ff'\L 8aa-X	.	>
!	!	!	!	!LO:HP:t=dim.	!	!	!	!
.	16c/JJ	.	.	>	.	.	.	.
8r	16d-X/LL	.	.	.	.	(16een\L 16gg	.	.
.	16e-/	.	.	.	.	16bb-\J	.	.
8AAA-X'/ 8AA-X	16f/	.	.	.	.	8ff'\J) 8aa-	.	.
.	16g/JJ	.	[[	.	.	.	.	.
*	*	*	*v	*v	*	*	*	*
!LO:LB:g=original	!LO:LB:g=original	!	!	!	!	!	!
=67	=67	=67	=67	=67	=67	=67	=67
8DD-X'/ 8D-X	16a-X/LL	.	>	4r	8r	.	.
.	16g/	.	.	.	.	.	.
8r	16f/	.	.	.	8fff'\ 8aaa-X	.	.
.	16e-/JJ	.	.	.	.	.	.
4r	16d-X/LL	.	.	8r	4r	.	.
.	16c/	.	.	.	.	.	.
.	16B-/	.	.	8ff'\ 8aa-X	.	.	.
.	16A-X/JJ)	.	]]	.	.	.	.
=68	=68	=68	=68	=68	=68	=68	=68
8CC#X'/ 8C#X	16r	.	.	2r	8r	.	.
.	(>16An/LL	.	<	.	.	.	.
8r	16B-/	.	.	.	8ee-X'\ 8gg	.	.
.	16c#X/JJ	.	.	.	.	.	.
8r	16dn/LL	.	.	.	(16dd\LL 16ff#X	.	.
.	16e-/	.	.	.	16aan\J	.	.
8GGG#X'/ 8GG#X	16f#X/	.	.	.	8ee-'\J) 8gg	.	.
.	16g/JJ	.	[[	.	.	.	.
=69	=69	=69	=69	=69	=69	=69	=69
8CC#X'/ 8C#X	16a/LL	.	>	4r	8r	.	.
.	16g/	.	.	.	.	.	.
8r	16f#X/	.	.	.	8eee-'\ 8ggg	.	.
.	16e-/JJ	.	.	.	.	.	.
4r	16d/LL	.	.	8r	4r	.	.
.	16c#X/	.	.	.	.	.	.
.	16B-/	.	.	8ee-'\ 8gg	.	.	.
.	16A/JJ)	.	]]	.	.	.	.
*	*clefF4	*	*	*	*	*	*
=70	=70	=70	=70	=70	=70	=70	=70
!	!	!	!	!	!LO:TX:b:t=1	!	!
2r	(16G\LL	.	p	2r	2r	.	.
.	16F#X\	.	.	.	.	.	.
.	16E-\	.	.	.	.	.	.
.	16D\JJ	.	.	.	.	.	.
.	16C#X/LL	.	.	.	.	.	.
.	16BB-/	.	.	.	.	.	.
.	16AA/	.	.	.	.	.	.
.	16BB-/JJ	.	.	.	.	.	.
=71	=71	=71	=71	=71	=71	=71	=71
!	!	!	!	!	!LO:TX:b:t=1	!	!
2r	16C#X\LL	.	.	2r	2r	.	.
.	16D\	.	.	.	.	.	.
.	16E-\	.	.	.	.	.	.
.	16F#X\JJ	.	.	.	.	.	.
.	16G\LL	.	.	.	.	.	.
.	16A\	.	.	.	.	.	.
.	16B-\	.	.	.	.	.	.
.	16c#X\JJ)	.	.	.	.	.	.
!LO:PB:g=original	!LO:PB:g=original	!	!	!LO:PB:g=original	!LO:PB:g=original	!	!
=72	=72	=72	=72	=72	=72	=72	=72
8D'/	16d\LL	.	.	4a/ 4dd	(8ff#X\L	.	p
.	16c#X\	.	.	.	.	.	.
8r	16e-\	.	.	.	8aa\J)	.	.
.	16d\JJ	.	.	.	.	.	.
8Cn'/	16cn\LL	.	.	4f#X/ 4a	8dd'\L	.	.
.	16Bn\	.	.	.	.	.	.
8r	16d\	.	.	.	8dd'\J	.	.
.	16c\JJ	.	.	.	.	.	.
=73	=73	=73	=73	=73	=73	=73	=73
8BB-'/	16B-X\LL	.	.	4g/	(8dd\L	.	.
.	16A\	.	.	.	.	.	.
8r	16c\	.	.	.	16cc#X\L	.	.
.	16B-\JJ	.	.	.	16dd\JJ	.	.
8AA'/	16A\LL	.	.	4f#X/ 4ccn	8ee-\L	.	.
.	16G#X\	.	.	.	.	.	.
8r	16B-\	.	.	.	8dd\J)	.	.
.	16A\JJ	.	.	.	.	.	.
=74	=74	=74	=74	=74	=74	=74	=74
8GG'/	16Gn\LL	.	.	4d/ 4g	(8b-\L 8dd	.	.
.	16F#X\	.	.	.	.	.	.
8r	16A\	.	.	.	8gg\J)	.	.
.	16G\JJ	.	.	.	.	.	.
8FFn'/	16Fn\LL	.	.	4d/ 4a	8dd'\L	.	.
.	16En\	.	.	.	.	.	.
8r	16G\	.	.	.	8dd'\J	.	.
.	16F\JJ	.	.	.	.	.	.
=75	=75	=75	=75	=75	=75	=75	=75
8EE-X'/	16E-X\LL	.	.	4d/ 4g	(8dd\L	.	.
.	16D\	.	.	.	.	.	.
8r	16F\	.	.	.	16cc#X\L	.	.
.	16E-\JJ	.	.	.	16dd\JJ	.	.
8DD'/	16D\LL	.	.	4cn/ 4f#X 4a	8ee-\L	.	.
.	16C#X\	.	.	.	.	.	.
8r	16E-\	.	.	.	8dd\J)	.	.
.	[16D\JJ	.	.	.	.	.	.
=76	=76	=76	=76	=76	=76	=76	=76
8DD'/	16D\LL]	.	.	8d'/L 8g	8b-'\L 8dd	.	.
.	16C#X\	.	.	.	.	.	.
8r	16E-\	.	.	8d'/J 8g	8b-'\J 8dd	.	.
.	[16D\JJ	.	.	.	.	.	.
8DDD'/	16D\LL]	.	.	4c^>/ 4f#X	(8.a^\L 8.cc	.	.
.	16C#\	.	.	.	.	.	.
8r	16E-\	.	.	.	.	.	.
.	[16D\JJ	.	.	.	16a\Jk	.	.
!LO:LB:g=original	!LO:LB:g=original	!	!	!	!	!	!
=77	=77	=77	=77	=77	=77	=77	=77
8DD'/	16D\LL]	.	.	8d'/L 8g	8b-'\L)	.	.
.	16C#X\	.	.	.	.	.	.
8r	16E-\	.	.	8d'/J 8g	8b-'\J	.	.
.	[16D\JJ	.	.	.	.	.	.
8DDD'/	16D\LL]	.	.	4c^>/ 4f#X	(8.a^\L 8.cc	.	.
.	16C#\	.	.	.	.	.	.
8r	16E-\	.	.	.	.	.	.
.	[16D\JJ	.	.	.	16a\Jk	.	.
!	!	!	!	!LO:LB:g=original	!LO:LB:g=original	!	!
=78	=78	=78	=78	=78	=78	=78	=78
8DD'/	16D\LL]	.	.	8d'/L 8f	8b-'\L)	.	.
.	16C#X\	.	.	.	.	.	.
8r	16E-\	.	.	8d'/J 8f	8b-'\J	.	.
.	[16D\JJ	.	.	.	.	.	.
8DDD'/	16D\LL]	.	.	8c/ 8f#X	8.a/L	.	.
.	16C#\	.	.	.	.	.	.
8r	16E-\	.	.	8r	.	.	.
.	[16D\JJ	.	.	.	16f#X/Jk	.	.
=79	=79	=79	=79	=79	=79	=79	=79
8DD'/	16D\LL]	.	.	8r	(16g\LL	.	.
.	16C#X\	.	.	.	16a\	.	.
8r	16E-\	.	.	8B-'/L 8d	16b-\	.	.
.	[16D\JJ	.	.	.	16cc\JJ	.	.
8DDD'/	16D\LL]	.	.	8d'/J 8g	8dd'\L)	5	.
.	16C#\	.	.	.	.	.	.
8r	16E-\	.	.	8r	8dd'\J	1	.
.	16D\JJ	.	.	.	.	.	.
=80	=80	=80	=80	=80	=80	=80	=80
8DD'/ 8D	16r	.	<	8b-'\L 8dd	8gg'\L 8ddd	.	<
.	16c#X\LL	.	.	.	.	.	.
8r	16e-\	.	.	8b-'\J 8dd	8gg'\J 8ddd	.	.
.	16d\JJ	.	.	.	.	.	.
8DDD'/ 8DD	16r	.	.	4a^\ 4cc	8.ff#X^\L 8.ccc	.	.
.	16C#X\LL	.	.	.	.	.	.
8r	16E-\	.	.	.	.	.	.
.	16D\JJ	.	.	.	16aa\Jk	.	.
=81	=81	=81	=81	=81	=81	=81	=81
8DD'/ 8D	16r	.	.	8b-'\L 8dd	8gg'\L 8bb-	.	.
.	16c#X\LL	.	.	.	.	.	.
8r	16e-\	.	.	8b-'\J 8dd	8gg'\J 8bb-	.	.
.	16d\JJ	.	.	.	.	.	.
8DDD'/ 8DD	16r	.	.	4a^\ 4cc	(8.ff#X^\L 8.ccc	.	.
.	16C#X\LL	.	.	.	.	.	.
8r	16E-\	.	.	.	.	.	.
.	16D\JJ	.	.	.	16aa\Jk	.	.
!LO:LB:g=original	!LO:LB:g=original	!	!	!	!	!	!
=82	=82	=82	=82	=82	=82	=82	=82
8DD'/ 8D	16r	.	.	8b-'\L 8dd	8gg'\L) 8bb-	.	.
.	16c#X\LL	.	.	.	.	.	.
8r	16e-\	.	.	8b-'\J 8dd	8gg'\J 8bb-	.	.
.	16d\JJ	.	.	.	.	.	.
8DDD'/ 8DD	16r	.	.	4a^\ 4cc	8.ff#X^\L 8.aa	.	.
.	16C#X\LL	.	.	.	.	.	.
8r	16E-\	.	.	.	.	.	.
.	16D\JJ	.	.	.	16ff#\Jk	.	.
=83	=83	=83	=83	=83	=83	=83	=83
8DD'/ 8D	16r	.	.	16g\LL	16gg\LL	.	<
.	16c#X\LL	.	.	16a\	16aa\	.	.
8r	16e-\	.	.	16b-\	16bb-\	.	.
.	16d\JJ	.	.	16cc\JJ	16ccc\JJ	.	.
8DDD'/ 8DD	16r	.	.	8dd'\L	8ddd'\L	.	.
.	16C#X\LL	.	.	.	.	.	.
8r	16E-\	.	.	8dd'\J	8ddd'\J	.	[[
.	16D\JJ	.	.	.	.	.	.
!	!	!	!	!LO:LB:g=original	!LO:LB:g=original	!	!
=84	=84	=84	=84	=84	=84	=84	=84
8DDD-X'/ 8DD-X	16r	.	f	8g'\L 8ee-X	8gg'\L 8eee-X	.	f
.	16D-X\LL	.	.	.	.	.	.
8r	16d-X\	.	.	8g'\J 8ee-	8gg'\J 8eee-	.	.
.	16D-\JJ	.	.	.	.	.	.
8FFF-X'/ 8FF-X	16r	.	.	8.g^\L 8.dd-X	8.gg^\L 8.ddd-X	.	.
.	16F-X\LL	.	.	.	.	.	.
8r	16f-X\	.	.	.	.	.	.
.	16F-\JJ	.	.	16b-\Jk	16bb-\Jk	.	.
=85	=85	=85	=85	=85	=85	=85	=85
8DDD-X/ 8DD-X	16r	.	.	8g'\L 8cc	8gg'\L 8ccc	.	.
.	16D-X\LL	.	.	.	.	.	.
8r	16d-X\	.	.	8g'\J 8cc	8gg'\J 8ccc	.	.
.	16D-\JJ	.	.	.	.	.	.
8FFF-X/ 8FF-X	16r	.	.	8.g^\L 8.dd-X	8.gg^\L 8.ddd-X	.	.
.	16F-X\LL	.	.	.	.	.	.
8r	16f-X\	.	.	.	.	.	.
.	16F-\JJ	.	.	16b-\Jk	16bb-\Jk	.	.
=86	=86	=86	=86	=86	=86	=86	=86
8DDD-X/ 8DD-X	16r	.	.	8g'\L 8cc	8gg'\L 8ccc	.	.
.	16D-X\LL	.	.	.	.	.	.
8r	16d-X\	.	.	8g'\J 8cc	8gg'\J 8ccc	.	.
.	16D-\JJ	.	.	.	.	.	.
8FFF-X/ 8FF-X	16r	.	.	8.g^\L 8.dd-X	8.gg^\L 8.ddd-X	.	.
.	16F-X\LL	.	.	.	.	.	.
8r	16f-X\	.	.	.	.	.	.
.	16F-\JJ	.	.	16b-\Jk	16bb-\Jk	.	.
!LO:LB:g=original	!LO:LB:g=original	!	!	!	!	!	!
=87	=87	=87	=87	=87	=87	=87	=87
8DDD-X/ 8DD-X	16r	.	.	(16g\LL	(16gg\LL	.	<
.	16D-X\LL	.	.	16a-X\	16aa-X\	.	.
8r	16d-X\	.	.	16b-\	16bb-\	.	.
.	16D-\JJ	.	.	16cc\JJ	16ccc\JJ	.	.
8FFF-X/ 8FF-X	16r	.	.	16dd-X\LL	16ddd-X\LL	.	.
.	16F-X\LL	.	.	16ee-\J	16eee-\J	.	.
8r	16f-X\	.	.	8ff-X'\J)	8fff-X'\J)	.	[
.	16F-\JJ	.	.	.	.	.	.
*	*clefG2	*	*	*	*	*	*
=88	=88	=88	=88	=88	=88	=88	=88
8r	8r	.	.	(16b-\LL	(16bb-\LL	.	<
.	.	.	.	16cc\	16ccc\	.	.
4BBB-^>/ 4BB-	4B-^>/ 4c#X 4b-	.	.	16dd-X\	16ddd-X\	.	.
.	.	.	.	16ee-\JJ	16eee-\JJ	.	.
.	.	.	.	16een\LL	16eeen\LL	.	.
.	.	.	.	16ff#X\J	16fff#X\J	.	.
8AAA/ 8AA	8A/ 8c# 8a	.	.	8gg'\J)	8ggg'\J)	.	[
!	!	!	!	!LO:LB:g=original	!LO:LB:g=original	!	!
=89	=89	=89	=89	=89	=89	=89	=89
*	*	*	*	*	*8va	*	*
8r	8r	.	.	(16dd-X\LL	(16ddd-X\LL	.	<
.	.	.	.	16ee-\	16eee-\	.	.
4GGG^>/ 4GG	4G^>/ 4c#X 4g	.	.	16een\	16eeen\	.	.
.	.	.	.	16ff#X\JJ	16fff#X\JJ	.	.
.	.	.	.	16gg\LL	16ggg\LL	.	.
.	.	.	.	16aa-X\J	16aaa-X\J	.	.
8FFF#X/ 8FF#X	8F#X/ 8c# 8f#X	.	.	8bb-'\J)	8bbb-'\J)	.	[
*	*clefF4	*	*	*	*	*	*
=90	=90	=90	=90	=90	=90	=90	=90
8r	8r	.	.	(16een\LL	(16eeen\LL	.	<
.	.	.	.	16ff#X\	16fff#X\	.	.
4GGG^>/ 4GG	4G^\ 4d-X 4g	.	.	16gg\	16ggg\	.	.
.	.	.	.	16aa-X\JJ	16aaa-X\JJ	.	.
.	.	.	.	16bb-\LL	16bbb-\LL	.	.
.	.	.	.	16ccc\J	16cccc\J	.	.
8GGG-X/ 8GG-X	8G-X\ 8d- 8g-X	.	.	8ddd-X'\J)	8dddd-X'\J)	.	[
=91	=91	=91	=91	=91	=91	=91	=91
8r	8r	.	.	(16gg\LL	(16ggg\LL	.	<
.	.	.	.	16aa-X\	16aaa-X\	.	.
4FFF^>/ 4FF	4F^\ 4d-X 4f	.	.	16bb-\	16bbb-\	.	.
.	.	.	.	16ccc\JJ	16cccc\JJ	.	.
.	.	.	.	16ddd-X\LL	16dddd-X\LL	.	.
.	.	.	.	16eee-\J	16eeee-\J	.	.
8EEEn/ 8EEn	8En\ 8d- 8en	.	.	8eeen'\J)	8eeeen'\J)	.	[
*	*clefG2	*	*	*	*	*	*
=92	=92	=92	=92	=92	=92	=92	=92
!	!	!	!	!	!	!	!LO:HP:t=sempre cresc.
4BBB-/ 4BB-	8r	.	.	(16gg\LL	(16ggg\LL	.	<
.	.	.	.	16aa-X\	16aaa-X\	.	.
!	!LO:TX:b:t=sempre cresc. _ _:ext=ud:problem=dynamics with extention lines	!	!LO:HP:t=sempre cresc. _ _:ext=ud	!	!	!	!
.	4B-/ 4c#X 4g	.	<	16bb-\	16bbb-\	.	.
.	.	.	.	16ccc\JJ	16cccc\JJ	.	.
4AAA/ 4AA	.	.	.	16ddd-X\LL	16dddd-X\LL	.	.
.	.	.	.	16eee-\	16eeee-\	.	.
.	8A/ 8c#X 8f#X	.	.	16fff-X\	16ffff-X\	.	.
.	.	.	.	16eee-\JJ	16eeee-\JJ	.	.
*	*	*	*	*	*X8va	*	*
!LO:LB:g=original	!LO:LB:g=original	!	!	!LO:LB:g=original	!LO:LB:g=original	!	!
=93	=93	=93	=93	=93	=93	=93	=93
*	*	*	*	*	*8va	*	*
4BBB-/ 4BB-	8r	.	.	16ddd-X\LL	16dddd-X\LL	.	.
.	.	.	.	16ccc\	16cccc\	.	.
.	4B-/ 4c#X 4g	.	.	16bb-\	16bbb-\	.	.
.	.	.	.	16aa-X\JJ	16aaa-X\JJ	.	.
4EEEn/ 4EEn	.	.	.	16gg\LL	16ggg\LL	.	.
.	.	.	.	16aa-\	16aaa-\	.	.
.	8B-/ 8c# 8g	.	[[	16bb-\	16bbb-\	.	.
.	.	.	.	16ccc\JJ	16cccc\JJ	.	.
=94	=94	=94	=94	=94	=94	=94	=94
4AAA/ 4AA	8r	.	.	16ddd-X\LL	16dddd-X\LL	.	.
.	.	.	.	16eee-\	16eeee-\	.	.
.	4A/ 4c#X 4f#X	.	.	16fff-X\	16ffff-X\	.	.
.	.	.	.	16eee-\JJ	16eeee-\JJ	.	.
4BBB-/ 4BB-	.	.	.	16ddd-\LL	16dddd-\LL	.	.
.	.	.	.	16ccc\	16cccc\	.	.
.	[<8B-/ [>8c# [>8g	.	.	16bb-\	16bbb-\	.	.
.	.	.	.	16aa-X\JJ	16aaa-X\JJ	.	.
=95	=95	=95	=95	=95	=95	=95	=95
8EEEn/ 8EEn	8B-/L] 8c#] 8g]	.	.	16gg\LL	16ggg\LL	.	.
.	.	.	.	16aa-X\	16aaa-X\	.	.
8r	8B-/J 8c#X 8g	.	.	16bb-\	16bbb-\	.	.
.	.	.	.	16ccc\JJ	16cccc\JJ	.	.
4r	4r	.	.	16ddd-X\LL	16dddd-X\LL	.	.
.	.	.	.	16eee-\	16eeee-\	.	.
.	.	.	.	16eeen\JJ)	16eeeen\JJ)	.	.
.	.	.	.	16r	16r	.	.
=96	=96	=96	=96	=96	=96	=96	=96
*tremolo	*	*	*	*	*	*	*
!LO:TX:b:i:t=trem.	!	!	!	!	!	!	!
32AAA-X/LLL	8a-X'/L 8cc	.	ff	8aa-X'\L	8fffn'\L 8ffffn	.	ff
32AA-X/	.	.	.	.	.	.	.
32AAA-/	.	.	.	.	.	.	.
32AA-X/	.	.	.	.	.	.	.
32AAA-/	8a-'/ 8cc	.	.	8aa-'\	8fff'\ 8ffff	.	.
32AA-X/	.	.	.	.	.	.	.
32AAA-/	.	.	.	.	.	.	.
32AA-X/	.	.	.	.	.	.	.
32AAA-/	(8.g-X^/ 8.b-	.	.	(8.gg-X^\	(8.eee-^\ 8.eeee-	.	.
32AA-X/	.	.	.	.	.	.	.
32AAA-/	.	.	.	.	.	.	.
32AA-X/	.	.	.	.	.	.	.
32AAA-/	.	.	.	.	.	.	.
32AA-X/	.	.	.	.	.	.	.
32AAA-/	16d-X/Jk 16f	.	.	16dd-X\Jk	16bb-\Jk 16bbb-	.	.
32AA-X/JJJ	.	.	.	.	.	.	.
=97	=97	=97	=97	=97	=97	=97	=97
32AAA-X/LLL	8e-'/L) 8g-X	.	.	8ee-'\L)	8ccc'\L) 8cccc	.	.
32AA-X/	.	.	.	.	.	.	.
32AAA-/	.	.	.	.	.	.	.
32AA-X/	.	.	.	.	.	.	.
32AAA-/	8e-'/ 8g-	.	.	8ee-'\	8ccc'\ 8cccc	.	.
32AA-X/	.	.	.	.	.	.	.
32AAA-/	.	.	.	.	.	.	.
32AA-X/	.	.	.	.	.	.	.
32AAA-/	(8.f^/ 8.a-X	.	.	(8.ff^\	(8.ddd-X^\ 8.dddd-X	.	.
32AA-X/	.	.	.	.	.	.	.
32AAA-/	.	.	.	.	.	.	.
32AA-X/	.	.	.	.	.	.	.
32AAA-/	.	.	.	.	.	.	.
32AA-X/	.	.	.	.	.	.	.
32AAA-/	16c/Jk 16e-	.	.	16cc\Jk	16aa-X\Jk 16aaa-X	.	.
32AA-X/JJJ	.	.	.	.	.	.	.
*	*	*	*	*	*	*	*
!	!	!	!	!LO:LB:g=original	!LO:LB:g=original	!	!
=98	=98	=98	=98	=98	=98	=98	=98
*	*	*	*	*	*	*	*
32AAA-X/LLL	8d-X'/L) 8f	.	.	8dd-X'\L)	8bb-'\L) 8bbb-	.	.
32AA-X/	.	.	.	.	.	.	.
32AAA-/	.	.	.	.	.	.	.
32AA-X/	.	.	.	.	.	.	.
32AAA-/	8d-'/ 8f	.	.	8dd-'\	8bb-'\ 8bbb-	.	.
32AA-X/	.	.	.	.	.	.	.
32AAA-/	.	.	.	.	.	.	.
32AA-X/	.	.	.	.	.	.	.
32AAA-/	(8.e-^/ 8.g-X	.	.	(8.ee-^\	(8.ccc^\ 8.cccc	.	.
32AA-X/	.	.	.	.	.	.	.
32AAA-/	.	.	.	.	.	.	.
32AA-X/	.	.	.	.	.	.	.
32AAA-/	.	.	.	.	.	.	.
32AA-X/	.	.	.	.	.	.	.
32AAA-/	16B-/Jk 16d-X	.	.	16b-\Jk	16gg-X\Jk 16ggg-X	.	.
32AA-X/JJJ	.	.	.	.	.	.	.
!LO:LB:g=original	!LO:LB:g=original	!	!	!	!	!	!
=99	=99	=99	=99	=99	=99	=99	=99
32AAA-X/LLL	8c'/L) 8e-	.	.	8cc'\L)	8aa-X'\L) 8aaa-X	.	.
32AA-X/	.	.	.	.	.	.	.
32AAA-/	.	.	.	.	.	.	.
32AA-X/	.	.	.	.	.	.	.
32AAA-/	8c'/ 8e-	.	.	8cc'\	8aa-'\ 8aaa-	.	.
32AA-X/	.	.	.	.	.	.	.
32AAA-/	.	.	.	.	.	.	.
32AA-X/	.	.	.	.	.	.	.
32AAA-/	(8.d-X^/ 8.f	.	.	(8.dd-X^\	(8.bb-^\ 8.bbb-	.	.
32AA-X/	.	.	.	.	.	.	.
32AAA-/	.	.	.	.	.	.	.
32AA-X/	.	.	.	.	.	.	.
32AAA-/	.	.	.	.	.	.	.
32AA-X/	.	.	.	.	.	.	.
32AAA-/	16A-X/Jk 16c	.	.	16a-X\Jk	16ff\Jk 16fff	.	.
32AA-X/JJJ	.	.	.	.	.	.	.
*	*	*	*	*	*X8va	*	*
=100	=100	=100	=100	=100	=100	=100	=100
32AAA-X/LLL	8B-'/L) 8d-X	.	.	8b-'/L)	8gg-X'\L) 8ggg-X	.	.
32AA-X/	.	.	.	.	.	.	.
32AAA-/	.	.	.	.	.	.	.
32AA-X/	.	.	.	.	.	.	.
32AAA-/	8c'/ 8e-	.	.	8cc'/	8aa-X'\ 8aaa-X	.	.
32AA-X/	.	.	.	.	.	.	.
32AAA-/	.	.	.	.	.	.	.
32AA-X/	.	.	.	.	.	.	.
32AAA-/	8G-X'/ 8B-	.	.	8g-X'/	8ee-'\ 8eee-	.	.
32AA-X	.	.	.	.	.	.	.
32AAA-/	.	.	.	.	.	.	.
32AA-X/	.	.	.	.	.	.	.
32AAA-/	8A-X'/J 8c	.	.	8a-X'/J	8ff'\J 8fff	.	.
32AA-X/	.	.	.	.	.	.	.
32AAA-/	.	.	.	.	.	.	.
32AA-X/JJJ	.	.	.	.	.	.	.
=101	=101	=101	=101	=101	=101	=101	=101
32AAA-X/LLL	8B-'/L 8d-X	.	.	8b-'/L	8gg-X'\L 8ggg-X	.	.
32AA-X/	.	.	.	.	.	.	.
32AAA-/	.	.	.	.	.	.	.
32AA-X/	.	.	.	.	.	.	.
32AAA-/	8F'/ 8A-X	.	.	8f'/	8dd-X'\ 8ddd-X	.	.
32AA-X/	.	.	.	.	.	.	.
32AAA-/	.	.	.	.	.	.	.
32AA-X/	.	.	.	.	.	.	.
32AAA-/	8G-X'/ 8B-	.	.	8g-X'/	8ee-'\ 8eee-	.	.
32AA-X/	.	.	.	.	.	.	.
32AAA-/	.	.	.	.	.	.	.
32AA-X/	.	.	.	.	.	.	.
32AAA-/	8A-'/J 8c	.	.	8a-X'/J	8ff'\J 8fff	.	.
32AA-X/	.	.	.	.	.	.	.
32AAA-/	.	.	.	.	.	.	.
32AA-X/JJJ	.	.	.	.	.	.	.
*	*clefF4	*	*	*	*	*	*
=102	=102	=102	=102	=102	=102	=102	=102
32AAA-X/LLL	8E-'\L 8G-X	.	.	8e-'/L	8cc'\L 8ccc	.	.
32AA-X/	.	.	.	.	.	.	.
32AAA-/	.	.	.	.	.	.	.
32AA-X/	.	.	.	.	.	.	.
32AAA-/	8F'\ 8A-X	.	.	8f'/	8dd-X'\ 8ddd-X	.	.
32AA-X/	.	.	.	.	.	.	.
32AAA-/	.	.	.	.	.	.	.
32AA-X/	.	.	.	.	.	.	.
32AAA-/	8E-'\ 8G-	.	.	8g-X'/	8ee-'\ 8eee-	.	.
32AA-X/	.	.	.	.	.	.	.
32AAA-/	.	.	.	.	.	.	.
32AA-X/	.	.	.	.	.	.	.
32AAA-/	8D-X'\J 8F	.	.	8d-X'/J	8b-'\J 8bb-	.	.
32AA-X/	.	.	.	.	.	.	.
32AAA-/	.	.	.	.	.	.	.
32AA-X/JJJ	.	.	.	.	.	.	.
=103	=103	=103	=103	=103	=103	=103	=103
32AAA-X/LLL	8E-'\L 8G-X	.	.	8e-'/L	8cc'\L 8ccc	.	.
32AA-X/	.	.	.	.	.	.	.
32AAA-/	.	.	.	.	.	.	.
32AA-X/	.	.	.	.	.	.	.
32AAA-/	8F'\ 8A-X	.	.	8f'/	8dd-X'\ 8ddd-X	.	.
32AA-X/	.	.	.	.	.	.	.
32AAA-/	.	.	.	.	.	.	.
32AA-X/	.	.	.	.	.	.	.
32AAA-/	8C'\ 8E-	.	.	8c'/	8a-X'\ 8aa-X	.	.
32AA-X/	.	.	.	.	.	.	.
32AAA-/	.	.	.	.	.	.	.
32AA-X/	.	.	.	.	.	.	.
32AAA-/	8D-X'\J 8F	.	.	8d-X'/J	8b-'\J 8bb-	.	.
32AA-X/	.	.	.	.	.	.	.
32AAA-/	.	.	.	.	.	.	.
32AA-X/JJJ	.	.	.	.	.	.	.
*Xtremolo	*	*	*	*	*	*	*
!LO:PB:g=original	!LO:PB:g=original	!	!	!LO:PB:g=original	!LO:PB:g=original	!	!
=104	=104	=104	=104	=104	=104	=104	=104
!LO:TX:t=P:problem=mixed beam	!	!	!	!LO:TX:t=P:problem=mixed beam	!	!	!
16GG-X/LL	4ryy	.	.	4ryy	16c</LL	.	.
16G-X>\	.	.	.	.	16a-X\ 16aa-X	.	.
16FF/	.	.	.	.	16d-X</	.	.
16F>\JJ	.	.	.	.	16b-\JJ 16bb-	.	.
!LO:TX:t=P:problem=mixed beam	!	!	!	!LO:TX:t=P:problem=mixed beam	!	!	!
16EE-/LL	4ryy	.	.	4ryy	16e-</LL	.	.
16E->\	.	.	.	.	16cc\ 16ccc	.	.
16DD-X/	.	.	.	.	16f</	.	.
16D-X>\JJ	.	.	.	.	16dd-X\JJ 16ddd-X	.	.
=105	=105	=105	=105	=105	=105	=105	=105
!LO:TX:t=P:problem=mixed beam	!	!	!	!LO:TX:t=P:problem=mixed beam	!	!	!
16EE-/LL	4ryy	.	.	4ryy	16e-</LL	.	.
16E->\	.	.	.	.	16cc\ 16ccc	.	.
16FF/	.	.	.	.	16d-X</	.	.
16F>\JJ	.	.	.	.	16b-\JJ 16bb-	.	.
!LO:TX:t=P:problem=mixed beam	!	!	!	!LO:TX:t=P:problem=mixed beam	!	!	!
16EE-/LL	4ryy	.	.	4ryy	16e-</LL	.	.
16E->\	.	.	.	.	16cc\ 16ccc	.	.
16DD-X/	.	.	.	.	16f</	.	.
16D-X>\JJ	.	.	.	.	16dd-X\JJ 16ddd-X	.	.
=106	=106	=106	=106	=106	=106	=106	=106
!LO:TX:t=P:problem=mixed beam	!	!	!LO:DY:a	!LO:TX:t=P:problem=mixed beam	!	!	!LO:HP:b=2
16CC/LL	4ryy	.	<	4ryy	16g-X</LL	.	<
16C>\	.	.	.	.	16ee-\ 16eee-	.	.
16DD-X/	.	.	.	.	16f</	.	.
16D-X>\JJ	.	.	.	.	16dd-X\JJ 16ddd-X	.	.
!LO:TX:t=P:problem=mixed beam	!	!	!	!LO:TX:t=P:problem=mixed beam	!	!	!
16CC/LL	4ryy	.	.	4ryy	16g-</LL	.	.
16C>\	.	.	.	.	16ee-\ 16eee-	.	.
16BBB-/	.	.	.	.	16a-X</	.	.
16BB->\JJ	.	.	.	.	16ff\JJ 16fff	.	.
=107	=107	=107	=107	=107	=107	=107	=107
*	*	*	*	*	*8va	*	*
!LO:TX:t=P:problem=mixed beam	!	!	!	!LO:TX:t=P:problem=mixed beam	!	!	!
16AAA-X/LL	4ryy	.	.	4ryy	16bb-</LL	.	.
16AA-X>\	.	.	.	.	16gg-X\ 16ggg-X	.	.
16GG-X/	.	.	.	.	16ccc</	.	.
16G-X>\JJ 16g-X>	.	.	.	.	16aa-X\JJ 16aaa-X	.	.
!LO:TX:t=P:problem=mixed beam	!	!	!	!LO:TX:t=P:problem=mixed beam	!	!	!
16FF/LL	4ryy	.	.	4ryy	16ddd-X</LL	.	.
16F>\ 16f>	.	.	.	.	16bb-\ 16bbb-	.	.
16EE-/ 16E-	.	.	.	.	16eee-</	.	.
16e->\JJ	.	.	[[	.	16ccc\JJ 16cccc	.	[[
*	*clefG2	*	*	*	*	*	*
!LO:LB:g=original	!LO:LB:g=original	!	!	!LO:LB:g=original	!LO:LB:g=original	!	!
=108||	=108||	=108||	=108||	=108||	=108||	=108||	=108||
*k[b-e-a-d-g-]	*k[b-e-a-d-g-]	*	*	*k[b-e-a-d-g-]	*k[b-e-a-d-g-]	*	*
!	!LO:TX:a:t=Animato e con fuoco.	!	!	!	!LO:TX:a:t=Animato e con fuoco.	!	!
8r	4f^/ 4a- 4dd-	.	.	4ff^\ 4aa- 4ddd-	4fff^\ 4aaa- 4dddd-	.	ff
(<8qCC'/	.	.	.	.	.	.	.
!	!	!	!LO:DY:b=2	!	!	!	!
8DD-'/) 8D-	.	.	sf	.	.	.	.
8r	8c-X'/L 8e- 8a-	.	.	8cc-X'\L 8ee- 8aa-	8ccc-X'\L 8eee- 8aaa-	.	.
(<8qCC'/	.	.	.	.	.	.	.
!	!	!	!LO:DY:b=2	!	!	!	!
8DD-'/) 8D-	8b-'/J	.	sf	8bb-'\J	8bbb-'\J	.	.
=109	=109	=109	=109	=109	=109	=109	=109
8r	4c#X^/ 4en 4an	.	.	4cc#X^\ 4een 4aan	4ccc#X^\ 4eeen 4aaan	.	.
(<8qCCn'/	.	.	.	.	.	.	.
!	!	!	!LO:DY:b=2	!	!	!	!
8DD-'/) 8D-	.	.	sf	.	.	.	.
8r	8An'/L 8dn 8f#X	.	.	8an'\L 8ddn 8ff#X	8aan'\L 8dddn 8fff#X	.	.
(<8qCC'/	.	.	.	.	.	.	.
!	!	!	!LO:DY:b=2	!	!	!	!
8DD-'/) 8D-	8g#X'/J	.	sf	8gg#X'\J	8ggg#X'\J	.	.
*	*clefF4	*	*	*	*	*	*
=110	=110	=110	=110	=110	=110	=110	=110
8r	4A-X^\ 4d-X 4fn	.	.	4a-X^\ 4dd-X 4ffn	4aa-X^\ 4ddd-X 4fffn	.	.
(<8qCC'/	.	.	.	.	.	.	.
!	!	!	!LO:DY:b=2	!	!	!	!
8DD-'/) 8D-	.	.	sf	.	.	.	.
8r	8G#X'\L 8Bn 8en	.	.	8g#X'\L 8bn 8een	8gg#X'\L 8bbn 8eeen	.	.
(<8qCC'/	.	.	.	.	.	.	.
!	!	!	!LO:DY:b=2	!	!	!	!
8DD-'/) 8D-	8f#X'\J	.	sf	8ff#X'\J	8fff#X'\J	.	.
*	*	*	*	*	*X8va	*	*
=111	=111	=111	=111	=111	=111	=111	=111
8r	8F#X'\L 8An 8en	.	.	8f#X'/L 8an 8een	8ff#X'\L 8aan 8eeen	.	.
(<8qCC'/	.	.	.	.	.	.	.
!	!	!	!LO:DY:b=2	!	!	!	!
8DD-X'/) 8D-X	8dn'\	.	sf	8ddn'/	8dddn'\	.	.
8r	8A'\	.	.	8a'/	8aa'\	.	.
(<8qCC'/	.	.	.	.	.	.	.
!	!	!	!LO:DY:b=2	!	!	!	!
8DD-'/) 8D-	8F#'\J	.	sf	8f#'/J	8ff#'\J	.	.
*	*clefG2	*	*	*	*	*	*
=112	=112	=112	=112	=112	=112	=112	=112
.	.	.	.	.	(<8qaaa-X/	.	.
8GG-X'/L 8D-X	8c-X'/L 8e-X	.	.	8ryy	8gg-X'^>/L) 8ggg-X	.	.
8GG-'/ 8D-	8c-'/ 8fn	.	.	8gg->'\L	8ryy	.	.
.	.	.	.	.	(<8qaaa-/	.	.
8GG-'/ 8D-	8c-'/ 8g-X	.	.	8ryy	8gg-'^>/J) 8ggg-	.	.
8GG-'/J 8D-	8c-'/J 8b-X	.	.	8gg->'\J	8ryy	.	.
=113	=113	=113	=113	=113	=113	=113	=113
.	.	.	.	.	(<8qaaa-/	.	.
8GG-'/L 8D-	(16B-/LL 16a-	.	.	8ryy	8gg-'^>/L) 8ggg-	.	.
.	16g-/	.	.	.	.	.	.
8GG-'/ 8D-	16e-/	.	.	8gg->'\L	8ryy	.	.
.	16g-/JJ	.	.	.	.	.	.
.	.	.	.	.	(<8qaaa-/	.	.
8GG-'/ 8D-	8B-'/L) 8d-	.	.	8ryy	8gg-'^>/J) 8ggg-	.	.
8DD-'^/J 8D-	8B-'^>/J 8f	.	.	8gg->'\J	8ryy	.	.
!LO:LB:g=original	!LO:LB:g=original	!	!	!LO:LB:g=original	!LO:LB:g=original	!	!
=114	=114	=114	=114	=114	=114	=114	=114
.	.	.	.	.	(<8qaaa-/	.	.
8GG-'/L 8D-	8c-X'/L 8e-	.	.	8ryy	8gg-'/L) 8ggg-X	.	.
8GG-'/ 8D-	8c-'/ 8f	.	.	8gg->'\L	8ryy	.	.
.	.	.	.	.	(<8qaaa-/	.	.
8GG-'/ 8D-	8c-'/ 8g-X	.	.	8ryy	8gg-'/J) 8ggg-	.	.
8GG-'/J 8D-	8c-'/J 8b-	.	.	8gg->'\J	8ryy	.	.
=115	=115	=115	=115	=115	=115	=115	=115
.	.	.	.	.	(<8qaaa-/	.	.
8GG-'/L 8D-	(16B-/LL 16a-	.	.	8ryy	8gg-'/L) 8ggg-	.	.
.	16g-/	.	.	.	.	.	.
8GG-'/ 8D-	16e-/	.	.	8gg->'\L	8ryy	.	.
.	16g-/JJ	.	.	.	.	.	.
.	.	.	.	.	(<8qaaa-/	.	.
8GG-'/ 8D-	8B-'/L) 8d-	.	.	8ryy	8gg-'/J) 8ggg-	.	.
8EE-'/J 8D-	8B-'/J 8g-	.	.	8gg->'\J	8ryy	.	.
=116	=116	=116	=116	=116	=116	=116	=116
*	*	*	*	*	*8va	*	*
8r	4f^/ 4a- 4dd-	.	.	8ddd-'\L	16dddd-\LL	.	.
.	.	.	.	.	16cccc\	.	.
(8qCC/	.	.	.	.	.	.	.
8DD-'/) 8D-	.	.	.	8ddd-'\	16dddd-\	.	.
.	.	.	.	.	16cccc\JJ	.	.
8r	8c-X'/L 8e- 8a-	.	.	8ddd-'\	16dddd-\LL	.	.
.	.	.	.	.	16eeee-\	.	.
(8qCC/	.	.	.	.	.	.	.
8DD-'/) 8D-	8b-'/J	.	.	8fff-X'\J	16ffff-X\	.	.
.	.	.	.	.	16eeee-\JJ	.	.
=117	=117	=117	=117	=117	=117	=117	=117
8r	4c#X^/ 4en 4an	.	.	8ccc#X'\L	16cccc#X\LL	.	.
.	.	.	.	.	16bbbn\	.	.
(8qBBB#X/	.	.	.	.	.	.	.
8CC#X'/) 8C#X	.	.	.	8aan'\	16aaan\	.	.
.	.	.	.	.	16ggg#X\JJ	.	.
8r	8A#X'/L 8dn 8f#X	.	.	8aa'\	16aaa\LL	.	.
.	.	.	.	.	16bbb\	.	.
(8qBBB#/	.	.	.	.	.	.	.
8CC#'/) 8C#	8g#X'/J	.	.	8ccc#'\J	16cccc#\	.	.
.	.	.	.	.	16bbb\JJ	.	.
*	*clefF4	*	*	*	*	*	*
=118	=118	=118	=118	=118	=118	=118	=118
8r	4G#X^\ 4c#X 4e#X	.	.	8aan'\L	16aaan\LL	.	.
.	.	.	.	.	16ggg#X\	.	.
(8qBBB#X/	.	.	.	.	.	.	.
8CC#X'/) 8C#X	.	.	.	8ff#X'\	16fff#X\	.	.
.	.	.	.	.	16eee#X\JJ	.	.
8r	8G#'\L 8Bn 8en	.	.	8ff#'\	16fff#\LL	.	.
.	.	.	.	.	16ggg#\	.	.
(8qBBB#/	.	.	.	.	.	.	.
8CC#'/) 8C#	8f#X'\J	.	.	8aa'\J	16aaa\	.	.
.	.	.	.	.	16ggg#\JJ	.	.
=119	=119	=119	=119	=119	=119	=119	=119
8r	(8F#X^\L 8An 8en	.	.	8ff#X'\L	(>16fff#X\LL	.	.
.	.	.	.	.	16eeen\	.	.
(8qBBB#X/	.	.	.	.	.	.	.
8CC#X'/) 8C#X	8dn\)	.	.	8ddn'\	16dddn\	.	.
.	.	.	.	.	16ccc#X\JJ	.	.
8r	8A'\	.	.	8dd'\	16ddd\LL	.	.
.	.	.	.	.	16eee\J	.	.
(8qBBB#/	.	.	.	.	.	.	.
8CC#'/) 8C#	8F#'\J	.	.	8ff#'\J	8fff#'\J)	.	.
*	*	*	*	*	*X8va	*	*
*	*clefG2	*	*	*	*	*	*
!LO:LB:g=original	!LO:LB:g=original	!	!	!LO:LB:g=original	!LO:LB:g=original	!	!
=120	=120	=120	=120	=120	=120	=120	=120
*	*	*	*	*	*8va	*	*
8GGn'/L 8Dn	8cn'/L 8en	.	p	(16ggn\LL	(16gggn\LL	.	p
.	.	.	.	16aan\	16aaan\	.	.
8GG'/ 8D	8c'/ 8f#X	.	.	16bbn\	16bbbn\	.	.
.	.	.	.	16cccn\JJ	16ccccn\JJ	.	.
8GG'/ 8D	8c'/ 8gn	.	.	16bb\LL	16bbb\LL	.	.
.	.	.	.	16aa\	16aaa\	.	.
8GG'/J 8D	8c'/J 8bn	.	.	16gg\	16ggg\	.	.
.	.	.	.	16ff#X\JJ)	16fff#X\JJ)	.	.
=121	=121	=121	=121	=121	=121	=121	=121
8GGn'/L 8Dn	(16Bn/LL 16an	.	.	(4een^\	(4eeen^\	.	.
.	16gn/	.	.	.	.	.	.
8GG'/ 8D	16en/	.	.	.	.	.	.
.	16g/JJ	.	.	.	.	.	.
8GG'/ 8D	8B'/L) 8dn	.	.	8ddn'\L)	8dddn'\L)	.	.
8DDn'^/J 8D	8B'^>/J 8f#X	.	.	8dddn'\J	8ddddn'\J	.	.
=122	=122	=122	=122	=122	=122	=122	=122
8GGn'/L 8Dn	8c'/L 8en	.	.	(16ggn\LL	(16gggn\LL	.	.
.	.	.	.	16aan\	16aaan\	.	.
8GG'/ 8D	8c'/ 8f#X	.	.	16bbn\	16bbbn\	.	.
.	.	.	.	16cccn\JJ	16ccccn\JJ	.	.
8GG'/ 8D	8c'/ 8gn	.	.	16bb\LL	16bbb\LL	.	.
.	.	.	.	16aa\	16aaa\	.	.
8GG'/J 8D	8c'/J 8bn	.	.	16gg\	16ggg\	.	.
.	.	.	.	16ff#X\JJ)	16fff#X\JJ)	.	.
=123	=123	=123	=123	=123	=123	=123	=123
8GGn'/L 8Dn	(16Bn/LL 16an	.	.	(4een^\	(4eeen^\	.	.
.	16gn/	.	.	.	.	.	.
8GG'/ 8D	16en/	.	.	.	.	.	.
.	16g/JJ	.	.	.	.	.	.
8GG'/ 8D	8B'/L) 8dn	.	.	8ddn'\L)	8dddn'\L)	.	.
8DDn'^/J 8D	8B'^>/J 8f#X	.	.	8dddn'\J	8ddddn'\J	.	.
=124	=124	=124	=124	=124	=124	=124	=124
!	!	!	!	!	!	!	!LO:DY:t=più p
8GG-X'/L 8D-X	8c-X'/L 8e-X	.	.	(16gg-X\LL	(16ggg-X\LL	.	p
.	.	.	.	16aa-X\	16aaa-X\	.	.
8GG-'/ 8D-	8c-'/ 8fn	.	.	16bb-X\	16bbb-X\	.	.
.	.	.	.	16ccc-X\JJ	16cccc-X\JJ	.	.
8GG-'/ 8D-	8c-'/ 8g-X	.	.	16bb-\LL	16bbb-\LL	.	.
.	.	.	.	16aa-\	16aaa-\	.	.
8GG-'/J 8D-	8c-'/J 8b-X	.	.	16gg-\	16ggg-\	.	.
.	.	.	.	16ff\JJ)	16fff\JJ)	.	.
=125	=125	=125	=125	=125	=125	=125	=125
8GG-'/L 8D-	(16B-/LL 16a-	.	.	(4ee-^\	(4eee-^\	.	.
.	16g-/	.	.	.	.	.	.
8GG-'/ 8D-	16e-/	.	.	.	.	.	.
.	16g-/JJ	.	.	.	.	.	.
8GG-'/ 8D-	8B-'/L) 8d-	.	.	8dd-'\L)	8ddd-'\L)	.	.
8DD-'/J 8D-	8B-'/J 8f	.	.	8ddd-'\J	8dddd-'\J	.	.
*	*	*	*	*	*X8va	*	*
!LO:LB:g=original	!LO:LB:g=original	!	!	!LO:LB:g=original	!LO:LB:g=original	!	!
=126	=126	=126	=126	=126	=126	=126	=126
*	*	*	*	*	*8va	*	*
8GG-'/L 8D-	8c-X'/L 8e-	.	.	4.dd-\	4.ddd-\	.	.
8GG-'/ 8D-	8c-'/ 8f	.	.	.	.	.	.
8GG-'/ 8D-	8c-'/ 8g-	.	.	.	.	.	.
8GG-'/J 8D-	8c-'/J 8f	.	.	8ddd-\	8dddd-\	.	.
=127	=127	=127	=127	=127	=127	=127	=127
8GG-'/L 8D-	8c-X'/L 8e-	.	<	4dd-\	4ddd-\	.	.
8GG-'/ 8D-	8c-'/ 8f	.	.	.	.	.	.
*	*	*	*	*	*X8va	*	*
8GG-'/ 8D-	8c-'/ 8g-	.	.	4r	4r	.	.
8GG-'/J 8D-	8c-'/J 8gn	.	[	.	.	.	.
*	*clefF4	*	*	*	*	*	*
=128	=128	=128	=128	=128	=128	=128	=128
!	!	!	!	!	!LO:TX:b:i:t=marcato.	!	!
2GGG-/ 2GG-	8r	.	.	8r	4a-/	.	.
.	8D-'\L 8F 8c-X	.	.	8d-'/L	.	.	.
.	8r	.	.	8r	4dd-\	.	.
.	8D-'\J 8F 8c-	.	.	8d-'/J 8a-	.	.	.
=129	=129	=129	=129	=129	=129	=129	=129
2GGG-/ 2GG-	8r	.	.	8r	8ccn'\L	.	.
.	8E-'\L 8An	.	.	8c'/L 8g-	8cc'\J	.	.
.	8r	.	.	8r	4dd-^\	.	.
.	8D-'\J 8G- 8B-	.	.	8d-'/J 8g-	.	.	.
=130	=130	=130	=130	=130	=130	=130	=130
2GGG-/ 2GG-	8r	.	.	8r	8ee-'\L	.	.
.	8D-'\L 8F 8c-X	.	.	8e-'/L 8a-	8ee-'\	.	.
.	8r	.	.	8r	8ff'\	.	.
.	8D-'\J 8F 8c-	.	.	8d-'/J 8a-	8dd-'\J	.	.
=131	=131	=131	=131	=131	=131	=131	=131
2GGG-/ 2GG-	8r	.	.	8r	8cc'\L	.	.
.	8E-'\L 8An	.	.	8c'/L 8g-	8cc'\J	.	.
.	8r	.	.	8r	4dd-^\	.	.
.	8D-'\J 8G- 8B-	.	.	8d-'/J 8g-	.	.	.
=132	=132	=132	=132	=132	=132	=132	=132
4FFF/ 4FF	8r	.	.	8r	8ee-'\L	.	.
.	8F'\L 8cn	.	.	8e-'/L 8an	8ee-'\	.	.
4BBB-/ 4BB-	8r	.	.	8r	8ff'\	.	.
.	8F'\J 8B-	.	.	8f'/J 8b-	8dd-'\J	.	.
!LO:LB:g=original	!LO:LB:g=original	!	!	!LO:LB:g=original	!LO:LB:g=original	!	!
=133	=133	=133	=133	=133	=133	=133	=133
4EE-/ 4E-	8r	.	.	8r	8cc'\L	.	.
.	8F'\L 8An	.	.	8c'/L 8f	8cc'\	.	.
4DD-/ 4D-	8r	.	.	8r	8dd-'\	.	.
.	8F'\J 8B-	.	.	8d-'/J 8f	8b-'\J	.	.
=134	=134	=134	=134	=134	=134	=134	=134
4CC/ 4C	8r	.	.	8r	8ee-'\L	.	.
.	8A-X'\L 8c	.	.	8e-'/L 8a-X	8ee-'\	.	.
4DD-/ 4D-	8r	.	.	8r	8ff'\	.	.
.	8A-'\J 8d-	.	.	8f'/J 8a-	8dd-'\J	.	.
=135	=135	=135	=135	=135	=135	=135	=135
4EE-/ 4E-	8r	.	.	8r	8cc'\L	.	.
.	8A-'\L 8c	.	.	8e-'/L 8a-	8cc'\	.	.
4EEE-/ 4EE-	8r	.	.	8r	8dd-'\	.	.
.	8E-'\J 8B-	.	.	8d-'/J 8gn	8b-'\J	.	.
=136	=136	=136	=136	=136	=136	=136	=136
2AAA-/ 2AA-	8r	.	.	8r	8a-'/L	.	.
.	8A-'\L	.	.	8c'/L 8e-	8a-'/	.	.
.	8r	.	.	8r	8b-'/	.	.
.	8A-'\J	.	.	8d-X'/J 8en	8gn'/J	.	.
=137	=137	=137	=137	=137	=137	=137	=137
2AAA-/ 2AA-	8r	.	.	8r	8a-'/L	.	.
.	8A-'\L	.	.	8dn'/L 8f	8a-'/J	.	.
.	8r	.	.	8r	4aa-^\	.	.
.	8A-'\J	.	.	8e-'/J 8g-X	.	.	.
=138	=138	=138	=138	=138	=138	=138	=138
!	!LO:TX:b:t=cresc._ _ _:ext=ud:problem=dynamics with extention lines	!	!	!	!LO:TX:b:t=cresc._ _:ext=ud:problem=dynamics with extention lines	!	!LO:HP:t=cresc._ _:ext=ud
2AAA-/ 2AA-	8r	.	<	8r	16aa-\LL	.	<
.	.	.	.	.	16bb-\	.	.
.	8A-'\L	.	.	8en'/L 8gn	16aa-\	.	.
.	.	.	.	.	16bb-\JJ	.	.
.	8r	.	.	8r	16aa-\LL	.	.
.	.	.	.	.	16bb-\	.	.
.	8A-'\J	.	.	8f'/J 8a-	16aa-\	.	.
.	.	.	.	.	16bb-\JJ	.	[[
=139	=139	=139	=139	=139	=139	=139	=139
16AA-^/LL	16A-^\LL	.	.	8g-X'/ 8b-	16aa-\LL	.	<
16BB-/	16B-\	.	.	.	16bb-\	.	.
16AA-/	16A-\	.	.	8r	16ccc\	.	.
16BB-/JJ	16B-\JJ	.	.	.	16ddd-\JJ	.	.
16AA-/LL	8A-\	.	.	16ee-\LL	16eee-\LL	.	.
16GG-/	.	.	.	16ff\	16fff\	.	.
16FF/	8r	.	[[	16gg-\	16ggg-\	.	.
16EE-/JJ	.	.	.	16ggn\JJ	16gggn\JJ	.	[[
*	*clefG2	*	*	*	*	*	*
!LO:PB:g=original	!LO:PB:g=original	!	!	!LO:PB:g=original	!LO:PB:g=original	!	!
=140	=140	=140	=140	=140	=140	=140	=140
!	!LO:TX:b:i:t=non legato.	!	!	!	!	!	!
8r	16d-/LL	.	f	4aa-\	4aaa-\	.	f
.	16f/	.	.	.	.	.	.
8DD-'/ 8D-	16g-/	.	.	.	.	.	.
.	16f/JJ	.	.	.	.	.	.
*	*	*	*	*	*8va	*	*
8r	16e-/LL	.	.	4dd-\	4ddd-\ 4dddd-	.	.
.	16d-/	.	.	.	.	.	.
8FF'/ 8F	16c/	.	.	.	.	.	.
.	16B-/JJ	.	.	.	.	.	.
=141	=141	=141	=141	=141	=141	=141	=141
8r	16An</LL	.	.	8cc'\L	8ccc'\L 8cccc	.	.
.	16F</	.	.	.	.	.	.
8FFF'>\ 8FF	16Gn</	.	.	8cc'\J	8ccc'\J 8cccc	.	.
.	16A</JJ	.	.	.	.	.	.
8r	16B-</LL	.	.	4dd-^\	4ddd-^\ 4dddd-	.	.
.	16c</	.	.	.	.	.	.
8BBB-'\ 8BB-	16d-/	.	.	.	.	.	.
.	16e-/JJ	.	.	.	.	.	.
=142	=142	=142	=142	=142	=142	=142	=142
8r	16d-/LL	.	.	8ee-'\L	8eee-'\L 8eeee-	.	.
.	16e-/	.	.	.	.	.	.
8FF'/ 8F	16d-/	.	.	8ee-'\	8eee-'\ 8eeee-	.	.
.	16c/JJ	.	.	.	.	.	.
8r	16B-</LL	.	.	8ff'\	8fff'\ 8ffff	.	.
.	16An</	.	.	.	.	.	.
8BBB-\ 8BB-	16Gn</	.	.	8dd-'\J	8ddd-'\J 8dddd-	.	.
.	16F</JJ	.	.	.	.	.	.
=143	=143	=143	=143	=143	=143	=143	=143
8r	16Gn</LL	.	.	8cc'\L	8ccc'\L 8cccc	.	.
.	16F</	.	.	.	.	.	.
8FFF'>\ 8FF	16G</	.	.	8cc'\J	8ccc'\J 8cccc	.	.
.	16An</JJ	.	.	.	.	.	.
8r	16B-</LL	.	.	4dd-^\	4ddd-^\ 4dddd-	.	.
.	16c/	.	.	.	.	.	.
8BBB-'>\ 8BB-	16d-/	.	.	.	.	.	.
.	16e-/JJ	.	.	.	.	.	.
=144	=144	=144	=144	=144	=144	=144	=144
8r	16d-/LL	.	.	8ee-'\L	8eee-'\L 8eeee-	.	.
.	16e-/	.	.	.	.	.	.
8FF'</ 8F	16d-/	.	.	8ee-'\	8eee-'\ 8eeee-	.	.
.	16c/JJ	.	.	.	.	.	.
8r	16B-</LL	.	.	8ff'\	8fff'\ 8ffff	.	.
.	16An</	.	.	.	.	.	.
8FFF'>\ 8FF	16Gn</	.	.	8dd-'\J	8ddd-'\J 8dddd-	.	.
.	16F</JJ	.	.	.	.	.	.
!LO:LB:g=original	!LO:LB:g=original	!	!	!	!	!	!
=145	=145	=145	=145	=145	=145	=145	=145
8r	16Gn</LL	.	.	8cc'\L	8ccc'\L 8cccc	.	.
.	16F</	.	.	.	.	.	.
8FFF'>\L 8FF	16G</	.	.	8cc'\	8ccc'\ 8cccc	.	.
.	16An</JJ	.	.	.	.	.	.
8r	16B-</LL	.	.	8dd-'\	8ddd-'\ 8dddd-	.	.
.	16c/	.	.	.	.	.	.
8BBB-'>\J 8BB-	16d-/	.	.	8b-'\J	8bb-'\J 8bbb-	.	.
.	16e-/JJ	.	.	.	.	.	.
*	*	*	*	*	*X8va	*	*
!	!	!	!	!LO:LB:g=original	!LO:LB:g=original	!	!
=146	=146	=146	=146	=146	=146	=146	=146
*	*	*	*	*	*8va	*	*
8r	16d-/LL	.	.	8ee-'\L	8eee-'\L 8eeee-	.	.
.	16c/	.	.	.	.	.	.
8CC'/L 8C	16a-/	.	.	8ee-'\	8eee-'\ 8eeee-	.	.
.	16gn/JJ	.	.	.	.	.	.
8r	16a-/LL	.	.	8ff'\	8fff'\ 8ffff	.	.
.	16g/	.	.	.	.	.	.
8DD-'/J 8D-	16f/	.	.	8dd-'\J	8ddd-'\J 8dddd-	.	.
.	16g/JJ	.	.	.	.	.	.
=147	=147	=147	=147	=147	=147	=147	=147
8r	16f/LL	.	.	8cc'\L	8ccc'\L 8cccc	.	.
.	16gn/	.	.	.	.	.	.
8EE-'/L 8E-	16f/	.	.	8cc'\	8ccc'\ 8cccc	.	.
.	16e-/JJ	.	.	.	.	.	.
8r	16f/LL	.	.	8dd-'\	8ddd-'\ 8dddd-	.	.
.	16e-/	.	.	.	.	.	.
8EE-'/J 8E-	16dn/	.	.	8b-'\J	8bb-'\J 8bbb-	.	.
.	16d-X/JJ	.	.	.	.	.	.
=148	=148	=148	=148	=148	=148	=148	=148
8r	16f-X/LL	.	.	8a-'/L	8aa-'\L 8aaa-	.	.
.	16d-/	.	.	.	.	.	.
8AAA-'/L 8AA-	16c/	.	.	8a-'/	8aa-'\ 8aaa-	.	.
.	16e-/JJ	.	.	.	.	.	.
8r	16f-/LL	.	.	8b-'/	8bb-'\ 8bbb-	.	.
.	16d-/	.	.	.	.	.	.
8AAA-'/J 8AA-	16c/	.	.	8gn'/J	8ggn'\J 8gggn	.	.
.	16e-/JJ	.	.	.	.	.	.
=149	=149	=149	=149	=149	=149	=149	=149
8AAA-'/ 8AA-	16d-/LL	.	.	4a-/	4aa-\ 4aaa-	.	.
.	16c/	.	.	.	.	.	.
8r	16B-/	.	.	.	.	.	.
.	16A-/JJ	.	.	.	.	.	.
4r	16B-/LL	.	.	4aa-\	4aaa-\ 4aaaa-	.	.
.	16c/	.	.	.	.	.	.
.	16d-/	.	.	.	.	.	.
.	16e-/JJ	.	.	.	.	.	.
*	*clefF4	*	*	*	*	*	*
!LO:LB:g=original	!LO:LB:g=original	!	!	!	!	!	!
=150||	=150||	=150||	=150||	=150||	=150||	=150||	=150||
*ok[bnenandngnf#c#g#d#]	*ok[bnenandngnf#c#g#d#]	*	*	*ok[bnenandngnf#c#g#d#]	*ok[bnenandngnf#c#g#d#]	*	*
*k[f#c#g#d#]	*k[f#c#g#d#]	*	*	*k[f#c#g#d#]	*k[f#c#g#d#]	*	*
!	!	!	!	!	!	!	!LO:DY:rj
8EE'/L 8E	8e'\L	.	ff	8.ee^\L 8.gg#	8.eee^\L 8.ggg#	.	ff
8DD#'/ 8D#	8d#'\	.	.	.	.	.	.
.	.	.	.	16b\Jk 16ff#	16bb\Jk 16fff#	.	.
8DDn'/ 8Dn	8dn'\	.	.	8.ee^\L 8.gg#	8.eee^\L 8.ggg#	.	.
8CC#'/J 8C#	8c#'\J	.	.	.	.	.	.
.	.	.	.	16b\Jk 16ff#	16bb\Jk 16fff#	.	.
=151	=151	=151	=151	=151	=151	=151	=151
8CCn'/L 8Cn	8cn'\L	.	.	8ee'\L 8gg#	8eee'\L 8ggg#	.	.
8BBB'/ 8BB	8B'\	.	.	8ee'\J 8gg#	8eee'\J 8ggg#	.	.
8AAA#X'/ 8AA#X	8A#X'\	.	.	8g#'\L 8ee	8gg#'\L 8eee	.	.
8BBB'/J 8BB	8B'\J	.	.	8g#'\J 8ee	8gg#'\J 8eee	.	.
*	*	*	*	*	*X8va	*	*
!	!	!	!	!LO:LB:g=original	!LO:LB:g=original	!	!
=152	=152	=152	=152	=152	=152	=152	=152
*	*	*	*	*	*8va	*	*
8EE'/L 8E	8e'\L	.	.	8.ff#^\L 8.aa	8.fff#^\L 8.aaa	.	.
8DD#'/ 8D#	8d#'\	.	.	.	.	.	.
.	.	.	.	16b\Jk 16gg#	16bb\Jk 16ggg#	.	.
8DDn'/ 8Dn	8dn'\	.	.	8.ff#^\L 8.aa	8.fff#^\L 8.aaa	.	.
8CC#'/J 8C#	8c#'\J	.	.	.	.	.	.
.	.	.	.	16b\Jk 16gg#	16bb\Jk 16ggg#	.	.
=153	=153	=153	=153	=153	=153	=153	=153
8CCn'/L 8Cn	8cn'\L	.	.	8ff#'\L 8aa	8fff#'\L 8aaa	.	.
8BBB'/ 8BB	8B'\	.	.	8ff#'\J 8aa	8fff#'\J 8aaa	.	.
8AAA#X'/ 8AA#X	8A#X'\	.	.	8b'\L 8ff#	8bb'\L 8fff#	.	.
8BBB'/J 8BB	8B'\J	.	.	8b'\J 8ff#	8bb'\J 8fff#	.	.
=154	=154	=154	=154	=154	=154	=154	=154
8BBB#X'/L 8BB#X	8B#X'\L	.	.	8g#'\L 8dd#	8gg#'\L 8ggg#	.	<
8DD#'/ 8D#	8d#'\	.	.	8g#'\ 8dd#	8gg#'\ 8ggg#	.	.
8BBBn'/ 8BBn	8Bn'\	.	.	8g#'\ 8ddn	8gg#'\ 8ggg#	.	.
8EE'/J 8E	8e'\J	.	.	8g#'\J 8dd	8gg#'\J 8ggg#	.	[[
=155	=155	=155	=155	=155	=155	=155	=155
8AAA'/L 8AA	8A'\L	.	.	(16cc#^\LL 16gg#	(16ccc#\LL 16ggg#	.	.
.	.	.	.	16aa\	16aaa\	.	.
8EE'/ 8E	8e'\	.	.	16gg#\	16ggg#\	.	.
.	.	.	.	16ff#\JJ	16fff#\JJ	.	.
8AAA'/ 8AA	8A'\	.	.	8ee'\L)	8eee'\L)	.	.
8FFF#'/J 8FF#	8F#'\J	.	.	8cc#'\J 8ee	8ccc#'\J 8eee	.	.
!LO:LB:g=original	!LO:LB:g=original	!	!	!	!	!	!
=156	=156	=156	=156	=156	=156	=156	=156
!LO:TX:t=P:problem=mixed beam	!	!	!	!	!	!	!
8BBB#X'/L 8BB#X	2ryy	.	.	16ff#\LL	16fff#\LL	.	.
.	.	.	.	16gg#\	16ggg#\	.	.
8G#>'>\ 8d#> 8f#>	.	.	.	16ff#\	16fff#\	.	.
.	.	.	.	16ee\JJ	16eee\JJ	.	.
8GGG#'/ 8GG#	.	.	.	16dd#\LL	16ddd#\LL	.	.
.	.	.	.	16b#X\	16bb#X\	.	.
8G#>'>\J 8d#> 8f#>	.	.	.	16cc#\	16ccc#\	.	.
.	.	.	.	16dd#\JJ	16ddd#\JJ	.	.
*	*	*	*	*	*X8va	*	*
!	!	!	!	!LO:LB:g=original	!LO:LB:g=original	!	!
=157	=157	=157	=157	=157	=157	=157	=157
*	*	*	*	*	*8va	*	*
!LO:TX:t=P:problem=mixed beam	!	!	!	!	!	!	!
8CC#'/L 8C#	2ryy	.	.	16ee\LL	16eee\LL	.	<
.	.	.	.	16ff#\	16fff#\	.	.
8G#>'>\ 8c#> 8e>	.	.	.	16ee\	16eee\	.	.
.	.	.	.	16dd#\JJ	16ddd#\JJ	.	.
8BBBnX'/ 8BBnX	.	.	.	16ee\LL	16eee\LL	.	.
.	.	.	.	16ff#\	16fff#\	.	.
8G#>'>\J 8c#> 8e>	.	.	.	16gg#\	16ggg#\	.	.
.	.	.	.	16bb#X\JJ	16bbb#X\JJ	.	[[
=158	=158	=158	=158	=158	=158	=158	=158
!LO:TX:t=P:problem=mixed beam	!	!	!	!	!	!	!
8AAA'/L 8AA	2ryy	.	.	16aa\LL	16aaa\LL	.	.
.	.	.	.	16gg#\	16ggg#\	.	.
8F#>'>\ 8c#> 8f#>	.	.	.	16ff#\	16fff#\	.	.
.	.	.	.	16ee\JJ	16eee\JJ	.	.
8BBB'/ 8BB	.	.	.	16dd#\LL	16ddd#\LL	.	.
.	.	.	.	16b\	16bb\	.	.
8F#>'>\J 8B> 8d#>	.	.	.	16cc#\	16ccc#\	.	.
.	.	.	.	16dd#\JJ	16ddd#\JJ	.	.
=159	=159	=159	=159	=159	=159	=159	=159
!LO:TX:t=P:problem=mixed beam	!	!	!	!	!	!	!
8GGG#'/L 8GG#	2ryy	.	.	16ee\LL	16eee\LL	.	<
.	.	.	.	16ff#\	16fff#\	.	.
8E>'>\ 8B> 8e>	.	.	.	16ee\	16eee\	.	.
.	.	.	.	16dd#\JJ	16ddd#\JJ	.	.
8EEE'/ 8EE	.	.	.	16ee\LL	16eee\LL	.	.
.	.	.	.	16ff#\	16fff#\	.	.
8G#>'>\J 8B> 8e>	.	.	.	16gg#\	16ggg#\	.	.
.	.	.	.	16bb\JJ	16bbb\JJ	.	[[
=160	=160	=160	=160	=160	=160	=160	=160
*	*	*	*	*^	*	*	*
8r	4.c#^\ 4.e	.	.	16aa\LL	4ryy	8aaa\	.	.
.	.	.	.	16gg#\	.	.	.	.
*	*	*	*	*	*	*X8va	*	*
8AAA'/L 8AA	.	.	.	16ff#\	.	8r	.	.
.	.	.	.	16ee#X\JJ	.	.	.	.
8FFF#'/J 8FF#	.	.	.	16ff#\	16r>	16ff#</LL	.	.
.	.	.	.	16r	16ryy	16gg#\	.	.
8r	8F#'\ 8c#	.	.	8r	8ryy	16aa\	.	.
.	.	.	.	.	.	16bb\JJ	.	.
*	*	*	*	*v	*v	*	*	*
=161	=161	=161	=161	=161	=161	=161	=161
8r	4.c#^\ 4.e	.	.	16cc#\LL	16ccc#\LL	.	.
.	.	.	.	16b\	16bb\	.	.
8AAA'/L 8AA	.	.	.	16a\	16aa\	.	.
.	.	.	.	16g#\JJ	16gg#\JJ	.	.
8FFF#'/J 8FF#	.	.	.	16a\LL	16aa\LL	.	.
.	.	.	.	16b\	16bb\	.	.
8ryy	8F#'\ 8c#	.	.	16cc#\	16ccc#\	.	.
.	.	.	.	16dd#\JJ	16ddd#\JJ	.	.
!LO:LB:g=original	!LO:LB:g=original	!	!	!LO:LB:g=original	!LO:LB:g=original	!	!
=162	=162	=162	=162	=162	=162	=162	=162
*	*	*	*	*	*8va	*	*
8r	4.F#^\ 4.c#	.	.	16ee\LL	16eee\LL	.	<
.	.	.	.	16dd#\	16ddd#\	.	.
8FFF#'/L 8FF#	.	.	.	16cc#\	16ccc#\	.	.
.	.	.	.	16b#X\JJ	16bb#X\JJ	.	.
8AAA'/J 8AA	.	.	.	16cc#\LL	16ccc#\LL	.	.
.	.	.	.	16dd#\	16ddd#\	.	.
8r	8c#'\ 8e	.	.	16ee\	16eee\	.	.
.	.	.	.	16ff#\JJ	16fff#\JJ	.	.
=163	=163	=163	=163	=163	=163	=163	=163
4AAA/ 4AA	8c#'\L 8e	.	.	16gg#\LL	16ggg#\LL	.	.
.	.	.	.	16ff#\	16fff#\	.	.
.	8F#'\ 8c#	.	.	16ee\	16eee\	.	.
.	.	.	.	16dd#\JJ	16ddd#\JJ	.	.
4r	8F#'\ 8c#	.	.	16ee\LL	16eee\LL	.	.
.	.	.	.	16ff#\	16fff#\	.	.
.	8c#'\J 8e	.	.	16gg#\	16ggg#\	.	.
.	.	.	.	16aa\JJ	16aaa\JJ	.	[
*	*clefG2	*	*	*	*	*	*
=164	=164	=164	=164	=164	=164	=164	=164
8r	4B^>/ 4g# 4b	.	.	4bb^\	4bbb^\	.	.
8BBB'/L 8BB	.	.	.	.	.	.	.
8r	4A#X^>/ 4gn 4a#X	.	.	4ee^\	4eee^\ 4eeee	.	.
8BBB'/J 8BB	.	.	.	.	.	.	.
=165	=165	=165	=165	=165	=165	=165	=165
8r	4An^>/ 4f# 4an	.	.	8dd#'\L	8ddd#'\L 8dddd#	.	.
8BBB'/L 8BB	.	.	.	8dd#'\J	8ddd#'\J 8dddd#	.	.
8r	4G#^>/ 4e 4g#	.	.	4ee^\	4eee^\ 4eeee	.	.
8BBB'/J 8BB	.	.	.	.	.	.	.
=166	=166	=166	=166	=166	=166	=166	=166
(<16E\LL	(<16e/LL	.	.	8ff#'\L	8fff#'\L 8ffff#	.	.
16F#\	16f#/	.	.	.	.	.	.
16E\	16e/	.	.	8ff#'\	8fff#'\ 8ffff#	.	.
16D#\JJ	16d#/JJ	.	.	.	.	.	.
16C#/LL	16c#/LL	.	.	8gg#'\	8ggg#'\ 8gggg#	.	.
16BB/	16B/	.	.	.	.	.	.
16AA/	16A/	.	.	8ee'\J	8eee'\J 8eeee	.	.
16GG#/JJ	16G#/JJ	.	.	.	.	.	.
=167	=167	=167	=167	=167	=167	=167	=167
16AA/LL	16A/LL	.	.	8dd#'\L	8ddd#'\L 8dddd#	.	.
16GG#/	16G#/	.	.	.	.	.	.
16AA/	16A/	.	.	8dd#'\J	8ddd#'\J 8dddd#	.	.
16BB/JJ	16B/JJ	.	.	.	.	.	.
16C#/LL	16c#/LL	.	.	4ee^\	4eee^\ 4eeee	.	.
16D#/	16d#/	.	.	.	.	.	.
16E/	16e/	.	.	.	.	.	.
16F#/JJ)	16f#/JJ)	.	.	.	.	.	.
*	*	*	*	*	*X8va	*	*
!LO:LB:g=original	!LO:LB:g=original	!	!	!LO:LB:g=original	!LO:LB:g=original	!	!
=168	=168	=168	=168	=168	=168	=168	=168
*	*	*	*	*	*8va	*	*
8r	4G#^>/ 4fn 4g#	.	.	4gg#^\	4ggg#^\	.	.
8GGG#'/L 8GG#	.	.	.	.	.	.	.
8r	4Gn^>/ 4e 4gn	.	.	4cc#^\	4ccc#^\ 4cccc#	.	.
8GGG#'/J 8GG#	.	.	.	.	.	.	.
*	*clefF4	*	*	*	*	*	*
=169	=169	=169	=169	=169	=169	=169	=169
8r	4F#^\ 4d# 4f#	.	.	8b#X'\L	8bb#X'\L 8bbb#X	.	.
8GGG#'/L 8GG#	.	.	.	8b#'\J	8bb#'\J 8bbb#	.	.
8r	4E^\ 4c# 4e	.	.	4cc#^\	4ccc#^\ 4cccc#	.	.
8GGG#'/J 8GG#	.	.	.	.	.	.	.
=170	=170	=170	=170	=170	=170	=170	=170
16BB#X/LL	16B#X\LL	.	<	8dd#'\L	8ddd#'\L 8dddd#	.	.
16GG#/	16G#\	.	.	.	.	.	.
16AA#X/	16A#X\	.	.	8dd#'\	8ddd#'\ 8dddd#	.	.
16BB#/JJ	16B#\JJ	.	.	.	.	.	.
16C#\LL	16c#\LL	.	.	8ee'\	8eee'\ 8eeee	.	.
16D#\	16d#\	.	.	.	.	.	.
16E\	16e\	.	.	8cc#'\J	8ccc#'\J 8cccc#	.	.
16F#\JJ	16f#\JJ	.	[[	.	.	.	.
=171	=171	=171	=171	=171	=171	=171	=171
16G#\LL	16g#\LL	.	.	8b#X'\L	8bb#X'\L 8bbb#X	.	.
16F#\	16f#\	.	.	.	.	.	.
16E\	16e\	.	.	8b#'\J	8bb#'\J 8bbb#	.	.
16D#\JJ	16d#\JJ	.	.	.	.	.	.
16C#/LL	16c#\LL	.	.	4cc#^\	4ccc#^\ 4cccc#	.	.
16BBnX/	16Bn\	.	.	.	.	.	.
16AAnX/	16An\	.	.	.	.	.	.
16GG#/JJ	16G#\JJ	.	.	.	.	.	.
*	*	*	*	*	*X8va	*	*
=172||	=172||	=172||	=172||	=172||	=172||	=172||	=172||
*ok[f#c#gndn]	*ok[f#c#gndn]	*	*	*ok[f#c#gndn]	*ok[f#c#gndn]	*	*
*k[f#c#]	*k[f#c#]	*	*	*k[f#c#]	*k[f#c#]	*	*
!	!	!	!LO:DY:t=meno f	!	!LO:TX:b:t=1	!	!
4AAA/ 4AA	4A\	.	f	2r	2r	.	.
4DD/ 4D	4d\	.	.	.	.	.	.
=173	=173	=173	=173	=173	=173	=173	=173
!	!	!	!	!	!	!	!LO:DY:t=meno f
8CC#'/L 8C#	8c#'\L	.	.	4a/	2r	.	f
8CC#'/J 8C#	8c#'\J	.	.	.	.	.	.
4DD/ 4D	4d\	.	.	4ddn\	.	.	.
!LO:PB:g=original	!LO:PB:g=original	!	!	!LO:PB:g=original	!LO:PB:g=original	!	!
=174	=174	=174	=174	=174	=174	=174	=174
8EE'/L 8E	8e'\L	.	.	8cc#'\L	4ff#\	.	.
8EE'/ 8E	8e'\	.	.	8cc#'\J	.	.	.
8FF#'/ 8F#	8f#'\	.	.	4dd\	4bb\	.	.
8DD'/J 8D	8d'\J	.	.	.	.	.	.
=175	=175	=175	=175	=175	=175	=175	=175
8CC#'/L 8C#	8c#'\L	.	.	8ee'\L	8aa#X'\L	.	.
8CC#'/J 8C#	8c#'\J	.	.	8ee'\	8aa#'\J	.	.
4DD^/ 4D	4d^\	.	.	8ff#'\	4bb^\	.	.
.	.	.	.	8dd'\J	.	.	.
=176	=176	=176	=176	=176	=176	=176	=176
8E'\L	8e'\L	.	.	8cc#'\L	8ccc#'\L	.	.
8E'\	8e'\	.	.	8cc#'\	8ccc#'\	.	.
8F#'\	8f#'\	.	.	8dd'\	8ddd'\	.	.
8D'\J	8d'\J	.	.	8b'\J	8bb'\J	.	.
=177	=177	=177	=177	=177	=177	=177	=177
8C#'/L	8c#'\L	.	.	8ee'\L	8aa#X'\L	.	.
8C#'/	8c#'\	.	.	8ee'\	8aa#'\J	.	.
8D'/	8d'\	.	.	8ff#'\	4bb^\	.	.
8BB'/J	8B'\J	.	.	8dd'\J	.	.	.
=178	=178	=178	=178	=178	=178	=178	=178
8E'\L	8e'\L	.	.	8cc#'\L	8ccc#'\L	.	.
8E'\	8e'\	.	.	8cc#'\	8ccc#'\	.	.
8F#'\	8f#'\	.	.	8dd'\	8ddd'\	.	.
8D'\J	8d'\J	.	.	8b'\J	8bb'\J	.	.
=179	=179	=179	=179	=179	=179	=179	=179
8C#'/L	8c#'\L	.	.	8ee'\L	8aa#X'\L	.	.
8C#'/	8c#'\	.	.	8ee'\	8aa#'\J	.	.
8D'/	8d'\	.	.	8ff#'\	4bb^\	.	.
8BB'/J	8B'\J	.	.	8dd'\J	.	.	.
!	!	!	!	!LO:LB:g=original	!LO:LB:g=original	!	!
=180	=180	=180	=180	=180	=180	=180	=180
!	!	!	!LO:HP:t=dim.	!	!	!	!LO:HP:t=dim.
8AA'/L	8A'\L	.	>	8cc#'\L	8aan'\L	.	>
8r	8r	.	.	8cc#'\	8aa'\	.	.
8AAA'/J 8AA	8A'\J	.	.	8dd'\	8bb'\	.	.
8r	8r	.	.	8a'\J	8ff#'\J	.	.
!LO:LB:g=original	!LO:LB:g=original	!	!	!	!	!	!
=181	=181	=181	=181	=181	=181	=181	=181
4r	4r	.	.	8g'/L	8ee'\L	.	.
.	.	.	.	8g'/	8ee'\	.	.
8AAA'/ 8AA	8A'\	.	.	8b'/	8gg'\	.	.
8r	8r	.	.	8f#'/J	8dd'\J	.	.
=182	=182	=182	=182	=182	=182	=182	=182
4r	4r	.	.	8e'/L	8cc#'\L	.	.
.	.	.	.	8e'/J	8cc#'\	.	.
8AAA'/ 8AA	8A'\L	.	.	8g/	8ee'\	.	.
8r	8d'\J	.	.	8r	8b'\J	.	.
=183	=183	=183	=183	=183	=183	=183	=183
4r	8c#'\L	.	.	2r	8a'/L	.	.
.	8c#'\	.	.	.	8a'/	.	.
8AAA'/ 8AA	8e'\	.	.	.	8cc#'/	.	.
8r	8B'\J	.	.	.	8g'/J	.	.
=184	=184	=184	=184	=184	=184	=184	=184
4r	8d'\L	.	.	2r	8b'/L	.	.
.	8A'\	.	.	.	8f#'/	.	.
8AAA'/ 8AA	8c#'\	.	.	.	8a'/	.	.
8r	8G'\J	.	.	.	8e'/J	.	.
=185	=185	=185	=185	=185	=185	=185	=185
2r	8B'\L	.	.	2r	8g'/L	.	.
.	8F#'\	.	.	.	8d'/	.	.
.	8A'\	.	.	.	8f#'/	.	.
.	8E'\J	.	.	.	8c#'/J	.	.
!	!	!	!	!LO:LB:g=original	!LO:LB:g=original	!	!
=186	=186	=186	=186	=186	=186	=186	=186
4r	8B'\L	.	.	2r	8g'/L	.	.
.	8F#'\	.	.	.	8d'/	.	.
8AAA'/ 8AA	8A'\	.	.	.	8f#'/	.	.
8r	8E'\J	.	.	.	8c#'/J	.	.
=187	=187	=187	=187	=187	=187	=187	=187
2r	8B'\L	.	.	2r	8g'/L	.	.
.	8F#'\	.	.	.	8d'/	.	.
.	8c#'\	.	.	.	8a'/	.	.
.	8G'\J	.	.	.	8e'/J	.	.
!LO:LB:g=original	!LO:LB:g=original	!	!	!	!	!	!
=188	=188	=188	=188	=188	=188	=188	=188
!	!	!	!	!	!LO:TX:b:t=8	!	!
8F#\L	4A\	.	p	0r	0r	.	.
8E'\	.	.	.	.	.	.	.
8D'\	4d\	.	.	.	.	.	.
8BB'\J	.	.	.	.	.	.	.
=189	=189	=189	=189	=189	=189	=189	=189
8AA#X'/L	8c#'\L	.	.	.	.	.	.
8FF#'/	8c#'\J	.	.	.	.	.	.
8BB'/	4d\	.	.	.	.	.	.
8AAn'/J	.	.	.	.	.	.	.
=190	=190	=190	=190	=190	=190	=190	=190
8GGn'/	8e'\L	.	.	.	.	.	.
8r	8e'\	.	.	.	.	.	.
8GG#X'/	8f#'\	.	.	.	.	.	.
8r	8d'\J	.	.	.	.	.	.
=191	=191	=191	=191	=191	=191	=191	=191
8AA#X'/L	8c#'\L	.	.	.	.	.	.
8FF#'/	8c#'\	.	.	.	.	.	.
8BB'/	8d'\	.	.	.	.	.	.
8D'/J	8B'\J	.	.	.	.	.	.
=192	=192	=192	=192	=192	=192	=192	=192
!	!LO:TX:b:i:t=sempre staccato.	!	!	!	!	!	!
8C#/L	8An\L	.	.	0r	0r	.	.
8C#/	8A\	.	.	.	.	.	.
8D/	8B\	.	.	.	.	.	.
8BB/J	8G\J	.	.	.	.	.	.
=193	=193	=193	=193	=193	=193	=193	=193
8AA/L	8F#\L	.	.	.	.	.	.
8AA/	8F#\	.	.	.	.	.	.
8BB/	8G\	.	.	.	.	.	.
8GG/J	8E\J	.	.	.	.	.	.
=194	=194	=194	=194	=194	=194	=194	=194
8FF#/L	8D\L	.	.	.	.	.	.
8FF#/	8D\	.	.	.	.	.	.
8GG/	8E\	.	.	.	.	.	.
8EE/J	8C#\J	.	.	.	.	.	.
!LO:LB:g=original	!LO:LB:g=original	!	!	!	!	!	!
=195	=195	=195	=195	=195	=195	=195	=195
8DD/L	8D\L	.	.	.	.	.	.
8DD/	8D\	.	.	.	.	.	.
8EE/	8E\	.	.	.	.	.	.
8CC#/J	8C#\J	.	.	.	.	.	.
=196	=196	=196	=196	=196	=196	=196	=196
!	!LO:TX:b:t=rit._ _ _:ext:ud:problem=text with extention lines	!	!	!	!	!	!
8DD/L	8D\L	.	.	2ryy	2ryy	.	.
8DD/	8D\	.	.	.	.	.	.
8EE/	8E\	.	.	.	.	.	.
8CC#/J	8C#\J	.	.	.	.	.	.
=197	=197	=197	=197	=197	=197	=197	=197
8DD/L	8D\L	.	.	2ryy	2ryy	.	.
8DD/	8D\	.	.	.	.	.	.
8EE/	8E\	.	.	.	.	.	.
8CC#/J	8C#\J	.	.	.	.	.	.
*	*clefG2	*	*	*	*	*	*
=198	=198	=198	=198	=198	=198	=198	=198
!	!	!	!LO:DY:t=sempre p	!	!	!	!
!	!LO:TX:a:t=Poco meno mosso.	!	!	!	!LO:TX:a:t=Poco meno moso.	!	!
8GG'/L 8D	8cn'/L 8d	.	p	[2dd\	[2ddd\	.	p
8GG'/ 8D	8c'/ 8e	.	.	.	.	.	.
8GG'/ 8D	8c'/ 8f#	.	.	.	.	.	.
8GG'/J 8D	8c'/J 8b	.	.	.	.	.	.
=199	=199	=199	=199	=199	=199	=199	=199
8GG'/L 8D	(16B/LL 16a	.	.	4.dd\]	(4.ddd\]	.	.
.	16g/	.	.	.	.	.	.
8GG'/ 8D	16e/	.	.	.	.	.	.
.	16g/JJ)	.	.	.	.	.	.
8GG'/ 8D	8B'/L 8d	.	.	.	.	.	.
8GG'/J 8D	8B'/J 8f#	.	.	8cc#\	8ccc#\	.	.
=200	=200	=200	=200	=200	=200	=200	=200
8GG'/L 8D	8cn'/L 8d	.	.	4ccn\	4.cccn\	.	.
8GG'/ 8D	8c'/ 8e	.	.	.	.	.	.
8GG'/ 8D	8c'/ 8f#	.	.	4r	.	.	.
8GG'/J 8D	8c'/J 8b	.	.	.	8bb\	.	.
!LO:LB:g=original	!LO:LB:g=original	!	!	!	!	!	!
=201	=201	=201	=201	=201	=201	=201	=201
8GG'/L 8D	(16B/LL 16a	.	.	2r	4.aa\	.	.
.	16g/	.	.	.	.	.	.
8GG'/ 8D	16e/	.	.	.	.	.	.
.	16g/JJ)	.	.	.	.	.	.
8GG'/ 8D	8B'/L 8d	.	.	.	.	.	.
8GG'/J 8D	8B'/J 8fn	.	.	.	8gg\)	.	.
!	!	!	!	!LO:LB:g=original	!LO:LB:g=original	!	!
=202	=202	=202	=202	=202	=202	=202	=202
8CCn'/L 8Cn	8B-X'/L 8e	.	.	[2g^</	[2gg^>\	.	.
8CC'/J 8C	8B-'/J 8e	.	.	.	.	.	.
8GG'/L 8D	8Bn'/L 8fn	.	.	.	.	.	.
8GG'/J 8D	8B'/J 8f	.	.	.	.	.	.
=203	=203	=203	=203	=203	=203	=203	=203
8CCn'/L 8Cn	8B-X'/L 8e	.	.	2g/_	2gg\_	.	.
8CC'/J 8C	8B-'/J 8e	.	.	.	.	.	.
8GG'/L 8D	8Bn'/L 8fn	.	.	.	.	.	.
8GG'/J 8D	8B'/J 8f	.	.	.	.	.	.
=204	=204	=204	=204	=204	=204	=204	=204
8CCn/ 8Cn	8B-X/ 8e	.	.	(16g/LL]	(16gg\LL]	.	.
.	.	.	.	16a/	16aa\	.	.
8r	8r	.	.	16g/	16gg\	.	.
.	.	.	.	16e/JJ	16ee\JJ	.	.
4r	4r	.	.	16cn/LL	16ccn\LL	.	.
.	.	.	.	16e/	16ee\	.	.
.	.	.	.	16g/	16gg\	.	.
.	.	.	.	16a/JJ	16aa\JJ	.	.
=205	=205	=205	=205	=205	=205	=205	=205
4r	4r	.	.	8g'/)	8gg'\)	.	.
.	.	.	.	[4.g^/	[4.gg^\	.	.
8r	8r	.	.	.	.	.	.
8DD-X'/ 8D-X	8Bn'/ 8fn	.	.	.	.	.	.
=206	=206	=206	=206	=206	=206	=206	=206
8CCn'/L 8Cn	8B-X'/L 8e	.	.	2g/_	2gg\_	.	.
8CC'/ 8C	8B-'/ 8e	.	.	.	.	.	.
8GG'/ 8D-X	8Bn'/ 8fn	.	.	.	.	.	.
8GG'/J 8D-	8B'/J 8f	.	.	.	.	.	.
!LO:LB:g=original	!LO:LB:g=original	!	!	!	!	!	!
=207	=207	=207	=207	=207	=207	=207	=207
8CCn'/L 8Cn	8B-X'/L 8e	.	.	2g/]	2gg\]	.	.
8CC'/ 8C	8B-'/ 8e	.	.	.	.	.	.
8GG'/ 8D-X	8Bn'/ 8fn	.	.	.	.	.	.
8GG'/J 8D-	8B'/J 8f	.	.	.	.	.	.
!	!	!	!	!LO:LB:g=original	!LO:LB:g=original	!	!
=208	=208	=208	=208	=208	=208	=208	=208
8CCn'/ 8Cn	8B-X'/ 8e	.	.	(16g/LL	(16gg\LL	.	.
.	.	.	.	16a/	16aa\	.	.
8r	8r	.	.	16g/	16gg\	.	.
.	.	.	.	16e/JJ	16ee\JJ	.	.
4r	4r	.	.	16cn/LL	16ccn\LL	.	.
.	.	.	.	16d/J	16dd\J	.	.
.	.	.	.	8e'/J)	8ee'\J)	.	.
*	*clefF4	*	*	*	*	*	*
=209	=209	=209	=209	=209	=209	=209	=209
4r	4r	.	.	2e/	2ee\ 2eee	.	.
8CCn'/ 8Cn	8G'\ 8B-X	.	.	.	.	.	.
8r	8r	.	.	.	.	.	.
=210	=210	=210	=210	=210	=210	=210	=210
*	*	*	*	*	*8va	*	*
4r	4r	.	.	2ee\	2eee\ 2eeee	.	.
8CC#X'/ 8C#X	8G'\ 8A 8e	.	.	.	.	.	.
8r	8r	.	.	.	.	.	.
*	*	*	*	*	*X8va	*	*
=211	=211	=211	=211	=211	=211	=211	=211
4r	4r	.	.	2e/	2ee\ 2eee	.	.
8r	8r	.	.	.	.	.	.
8CCn'/ 8Cn	8G'\ 8B-X	.	.	.	.	.	.
=212	=212	=212	=212	=212	=212	=212	=212
*	*	*	*	*	*8va	*	*
4r	4r	.	.	[2ee\	[2eee\ [2eeee	.	.
8CC#X'/ 8C#X	8G'\ 8A 8e	.	.	.	.	.	.
8r	8r	.	.	.	.	.	.
=213	=213	=213	=213	=213	=213	=213	=213
2CCn/ 2Cn	(8G\L 8B-X	.	.	2ee\]	2eee\] 2eeee]	.	.
.	8d\	.	.	.	.	.	.
.	8cn\	.	.	.	.	.	.
.	8B-\J	.	.	.	.	.	.
*	*	*	*	*	*X8va	*	*
=214	=214	=214	=214	=214	=214	=214	=214
!	!	!	!	!	!LO:TX:b:t=1	!	!
2r	8A\L	.	.	2r	2r	.	.
.	8B-X\	.	.	.	.	.	.
.	8F#X\	.	.	.	.	.	.
.	8G\J	.	.	.	.	.	.
!LO:PB:g=original	!LO:PB:g=original	!	!	!LO:PB:g=original	!LO:PB:g=original	!	!
=215	=215	=215	=215	=215	=215	=215	=215
!	!	!	!	!LO:TX:a:i:t=rit.	!LO:TX:b:t=2	!	!
2r	8D#X\L	.	.	1r	1r	.	.
.	8E\	.	.	.	.	.	.
.	8F#\	.	.	.	.	.	.
.	8G\J	.	.	.	.	.	.
=216	=216	=216	=216	=216	=216	=216	=216
!	!LO:TX:b:t=rit._ _ _:ext:ud:problem=text with extention lines	!	!	!	!	!	!
2r	8F#\L	.	.	.	.	.	.
.	8G\	.	.	.	.	.	.
.	8A\	.	.	.	.	.	.
.	8B-X\J	.	.	.	.	.	.
=217	=217	=217	=217	=217	=217	=217	=217
2r;>	8A\L	.	.	2r;>	2r;>	.	.
.	8A#X\	.	.	.	.	.	.
.	8d#X\	.	.	.	.	.	.
.	8e;>\J)	.	.	.	.	.	.
=218||	=218||	=218||	=218||	=218||	=218||	=218||	=218||
*k[f#]	*k[f#]	*	*	*k[f#]	*k[f#]	*	*
!	!LO:TX:a:t=Tempo I°.	!	!	!	!LO:TX:a:t=Tempo I°.	!	!
8BBB/ 8BB	8r	.	p	4b\ 4ee	(8gg\L 8bb	.	p
8r	8G'\L 8B 8e	.	.	.	8eee\J)	.	.
4r	8B'\ 8e 8g	.	.	8b'\L 8ee	8gg'\L 8bb	.	.
.	8G'\J 8B 8e	.	.	8b\J 8ee	8gg'\J 8bb	.	.
=219	=219	=219	=219	=219	=219	=219	=219
8BBB/ 8BB	8r	.	.	4b\ 4ee	(8gg\L 8bb	.	.
8r	8G\ 8B 8e	.	.	.	16aa#X\L	.	.
.	.	.	.	.	16bb\JJ	.	.
4r	4A^\ 4d#X 4f#	.	.	(8cc^\L 8dd#X	8aan^\L 8ccc	.	.
.	.	.	.	8b\J)	8bb\J)	.	.
=220	=220	=220	=220	=220	=220	=220	=220
[4EE/	[4E\	.	.	4g\ 4b 4ee	(8gg\L 8bb	.	.
.	.	.	.	.	8eee\J)	.	.
(16EE/LL]	(16E\LL]	.	<	8g'\L 8b 8ee	8gg'\L 8bb	.	.
16FF#/	16F#\	.	.	.	.	.	.
16GG/	16G\	.	.	8g'\J 8b 8ee	8gg'\J 8bb	.	.
16AA/JJ	16A\JJ	.	.	.	.	.	.
=221	=221	=221	=221	=221	=221	=221	=221
8BB/L	8B\L	.	.	4g\ 4b 4ee	(8gg\L 8bb	.	.
8E/J	8e\J	.	.	.	16aa#X\L	.	.
.	.	.	.	.	16bb\JJ	.	.
4D#X/)	4d#X\)	.	[	(8f#^\L 8cc 8dd#X	8aan^\L 8ccc	.	.
.	.	.	.	8b\J)	8bb\J)	.	.
*	*clefG2	*	*	*	*	*	*
!LO:LB:g=original	!LO:LB:g=original	!	!	!	!	!	!
=222	=222	=222	=222	=222	=222	=222	=222
*^	*^	*	*	*	*	*	*
8Dn/L	4Dn\	8dn/L	4dn\	.	.	8g#X'/L 8b	8ee'\L 8bb	.	.
8E/J	.	8e/J	.	.	.	8g#'/J 8b	8ee'\J 8bb	.	.
8C#X/L	4C#X\	8c#X/L	4c#X\	.	.	4a/	(8.ee\L 8.aa	.	.
8E/J	.	8e/J	.	.	.	.	.	.	.
.	.	.	.	.	.	.	16ff#\Jk	.	.
=223	=223	=223	=223	=223	=223	=223	=223	=223	=223
8Cn/L	4Cn\	8cn/L	4cn\	.	.	8gn'/L	8ee'\L) 8ggn	.	.
8E/J	.	8e/J	.	.	.	8g'/J	8ee'\J 8gg	.	.
8C#X/L	4C#X\	8c#X/L	4c#X\	.	.	4a/	8.ee\L 8.aa	.	.
8E/J	.	8e/J	.	.	.	.	.	.	.
.	.	.	.	.	.	.	16ff#\Jk	.	.
!	!	!	!	!	!	!LO:LB:g=original	!LO:LB:g=original	!	!
=224	=224	=224	=224	=224	=224	=224	=224	=224	=224
8Cn/L	4Cn\	8cn/L	4cn\	.	.	8g'/L	8ee'\L 8gg	.	.
8E/J	.	8e/J	.	.	.	8g'/J	8ee'\J 8gg	.	.
*	*	*clefF4	*	*	*	*	*	*	*
8AA/L	4AA\	8A\L	4A/	.	.	4fn/	8.ccn\L 8.ffn	.	.
8BB/J	.	8B\J	.	.	.	.	.	.	.
.	.	.	.	.	.	.	16dd#X\Jk	.	.
*v	*v	*	*	*	*	*	*	*	*
*	*v	*v	*	*	*	*	*	*
=225	=225	=225	=225	=225	=225	=225	=225
8AA/L	8A\L	.	.	(16e/LL	(16ee\LL	.	.
.	.	.	.	16f#X/	16ff#X\	.	.
8GG/	8G\	.	.	16g/	16gg\	.	.
.	.	.	.	16a/JJ	16aa\JJ	.	.
8FF#/	8F#\	.	.	8b'/L)	8bb'\L)	.	.
8EE/J	8E\J	.	.	8b'/J	8bb'\J	.	.
=226	=226	=226	=226	=226	=226	=226	=226
(4DD/ 4D	8r	.	.	8g#X'/L 8b	8ee'\L 8bb	.	.
.	4E\ 4e	.	.	8g#'/J 8b	8ee'\J 8bb	.	.
4CC#X/ 4C#X	.	.	.	(4a/	(8.ee\L 8.aa	.	.
.	[8E\ [8e	.	.	.	.	.	.
.	.	.	.	.	16ff#\Jk	.	.
=227	=227	=227	=227	=227	=227	=227	=227
4CCn/ 4Cn	8E\] 8e]	.	.	8gn'/L)	8ee'\L) 8gg	.	.
.	4E\ 4e	.	.	8g'/J	8ee'\J 8gg	.	.
4FFF#/) 4FF#	.	.	.	4a/	8.ee\L 8.aa	.	.
.	8A\ 8cn 8e	.	.	.	.	.	.
.	.	.	.	.	16ff#\Jk	.	.
=228	=228	=228	=228	=228	=228	=228	=228
8BBB/ 8BB	8r	.	.	8g'/L	8ee'\L 8gg	.	.
8r	8A#X'\L 8c#X	.	.	8g'/J	8ee'\J 8gg	.	.
4r	8An'\ 8cn	.	.	4f#^/	8.dd#X^\L 8.ff#	.	.
.	8A'\J 8B	.	.	.	.	.	.
.	.	.	.	.	16dd#\Jk	.	.
!LO:LB:g=original	!LO:LB:g=original	!	!	!	!	!	!
=229	=229	=229	=229	=229	=229	=229	=229
8EE/ 8E	8G\ 8B	.	.	8e/L	16ee\LL	.	.
.	.	.	.	.	16ff#\	.	.
8r	8r	.	.	16g/L	16gg\	.	.
.	.	.	.	16b/JJ	16bb\JJ	.	.
4r	4r	.	.	16cc#X\LL	16ccc#X\LL	.	.
.	.	.	.	16dd#X\	16ddd#X\	.	.
.	.	.	.	16ee\	16eee\	.	.
.	.	.	.	16ff#\JJ	16fff#\JJ	.	.
*	*clefG2	*	*	*	*	*	*
!	!	!	!	!LO:LB:g=original	!LO:LB:g=original	!	!
=230	=230	=230	=230	=230	=230	=230	=230
*	*	*	*	*	*8va	*	*
4r	2g^>/	.	.	8ee'\L 8gg	(8ccc\L 8ggg	.	pp
.	.	.	.	8ee'\J 8gg	8ccccn\J)	.	.
8r	.	.	.	8ee-X'\L 8ff#X	8ccc'\L 8ggg	.	.
8G'\	.	.	.	8ee-'\J 8ff#	8ccc'\J 8ggg	.	.
=231	=231	=231	=231	=231	=231	=231	=231
4r	2g^>/	.	.	8dd'\L 8ffn	(8bb\L 8ggg	.	.
.	.	.	.	8dd'\J 8ff	16fff#\L	.	.
.	.	.	.	.	16ggg\JJ	.	.
8r	.	.	.	8cc#X'\L 8een	8bb-X\L 8aaa	.	.
8G'\	.	.	.	8cc#'\J 8ee	8ggg\J)	.	.
=232	=232	=232	=232	=232	=232	=232	=232
4r	2g^>/	.	.	8dd'\L 8ffn	(8bbn\L 8ggg	.	.
.	.	.	.	8ee-X'\J 8ff#X	8ccc\J) 8cccc	.	.
8r	.	.	.	8een'\L 8gg	8ccc'\L 8ggg	.	.
8G'\	.	.	.	8ee'\J 8gg	8ccc'\J 8ggg	.	.
=233	=233	=233	=233	=233	=233	=233	=233
4r	2g^>/	.	.	8ee'\L 8bb-X	(8ccc#X\L 8ggg	.	.
.	.	.	.	8ee'\J 8bb-	16fff#\L	.	.
.	.	.	.	.	16ggg\JJ	.	.
8r	.	.	.	8ffn'\L 8bbn	8ddd\L 8aaa	.	.
8G'\	.	.	.	8ff'\J 8bb	8ggg\J)	.	.
=234	=234	=234	=234	=234	=234	=234	=234
4r	2g^>/	.	.	8ee'\L 8bb-X	8ccc#X'\L 8ggg	.	.
.	.	.	.	8ee'\J 8bb-	8ccc#'\J 8ggg	.	.
8r	.	.	.	8dd'\L 8aa-X	(8.bbn\L 8.fffn	.	.
8G'\	.	.	.	8dd'\J 8aa-	.	.	.
.	.	.	.	.	16ddd\Jk	.	.
!	!	!	!	!LO:LB:g=original	!LO:LB:g=original	!	!
=235	=235	=235	=235	=235	=235	=235	=235
4r	2g^>/	.	.	8cc#X'\L 8gg	8bb-X'\L) 8eee	.	.
.	.	.	.	8cc#'\J 8gg	8bb-'\J 8eee	.	.
8r	.	.	.	8dd'\L 8aa-X	(8.bbn\L 8.fffn	.	.
8G'\	.	.	.	8dd'\J 8aa-	.	.	.
.	.	.	.	.	16ddd\Jk	.	.
*	*	*	*	*	*X8va	*	*
!LO:LB:g=original	!LO:LB:g=original	!	!	!	!	!	!
=236	=236	=236	=236	=236	=236	=236	=236
4r	2g^>/	.	.	8cc#X'\L 8gg	8b-X'\L) 8ee	.	.
.	.	.	.	8cc#'\J 8gg	8b-'\J 8ee	.	.
8r	.	.	.	8ccn'\L 8ff#X	8.a\L 8.dd	.	.
8G'\	.	.	.	8cc'\J 8ff#	.	.	.
.	.	.	.	.	16bn\Jk	.	.
=237	=237	=237	=237	=237	=237	=237	=237
4r	2g^>/	.	.	8cc'\ 8ee 8gg	(16cc\LL	.	.
.	.	.	.	.	16dd\	.	.
.	.	.	.	8r	16ee\	.	.
.	.	.	.	.	16ffn\JJ	.	.
8r	.	.	.	8gg'\L	8gg'\L)	.	.
8G'\	.	.	.	8cc'\J 8ee 8gg	8cc'\J 8ee 8gg	.	.
=238	=238	=238	=238	=238	=238	=238	=238
2r	8g'/L	.	.	8cc'\L 8ee 8gg	8cc'\L 8ee 8gg	.	.
.	8c'/J	.	.	8cc'\J 8ee 8gg	8cc'\J 8ee 8gg	.	.
.	(8a^/L	.	.	8dd'\L 8ff#	8cc'\L 8dd 8ff#X	.	.
.	16b/L	.	.	8dd'\J 8ff#	8cc'\J 8dd 8ff#	.	.
.	16a/JJ	.	.	.	.	.	.
=239	=239	=239	=239	=239	=239	=239	=239
2r	8g'/L)	.	.	8cc'\L 8ee 8gg	8cc'\L 8ee 8gg	.	.
.	8c'/J	.	.	8cc'\J 8ee 8gg	8cc'\J 8ee 8gg	.	.
.	(8a^/L	.	.	8dd'\L 8ff#	8cc'\L 8dd 8ff#	.	.
.	16b/L	.	.	8dd'\J 8ff#	8cc'\J 8dd 8ff#	.	.
.	16a/JJ	.	.	.	.	.	.
=240	=240	=240	=240	=240	=240	=240	=240
2r	8g'/L)	.	.	8cc'\L 8ee 8gg	8cc'\L 8ee 8gg	.	>
.	8c'/J	.	.	8cc'\J 8ee 8gg	8cc'\J 8ee 8gg	.	.
.	(8a^/L	.	.	8dd'\L 8ff#	8cc'\L 8dd 8ff#	.	.
.	16b/L	.	.	8dd'\J 8ff#	8cc'\J 8dd 8ff#	.	.
.	16a/JJ	.	.	.	.	.	.
=241	=241	=241	=241	=241	=241	=241	=241
2r	8g'/L)	.	.	8cc'\L 8ee 8gg	8cc'\L 8ee	.	.
.	8c'/J	.	.	8cc'\J 8ee 8gg	8cc'\J 8ee	.	.
.	(8a^/L	.	.	8cc'\L 8dd 8ff#	8cc'\L 8dd	.	.
.	16b-X/L	.	.	8cc'\J 8dd 8ff#	8cc'\J 8dd	.	]]
.	16a/JJ	.	.	.	.	.	.
!LO:LB:g=original	!LO:LB:g=original	!	!	!LO:LB:g=original	!LO:LB:g=original	!	!
=242||	=242||	=242||	=242||	=242||	=242||	=242||	=242||
*	*	*	*	*ok[fnb-e-]	*ok[fnb-e-]	*	*
*k[b-e-]	*k[b-e-]	*	*	*k[b-e-]	*k[b-e-]	*	*
8GG'/ 8G	8g/)	.	.	4b-\ 4dd	(8bb-\L 8ddd	.	.
8r	8r	.	.	.	8ggg\J)	.	.
8GGG'/ 8GG	4r	.	.	8a'\L 8cc#X	8aa'\L 8ccc#X	.	.
8r	.	.	.	8a'\J 8cc#	8aa'\J 8ccc#	.	.
*	*clefF4	*	*	*	*	*	*
=243	=243	=243	=243	=243	=243	=243	=243
4r	(>2AA-X\ 2A-X	.	.	4a-X\ 4ccn	(8aa-X\L 8cccn	.	.
.	.	.	.	.	16bbn\L	.	.
.	.	.	.	.	16ccc\JJ	.	.
8GGG'/ 8GG	.	.	.	8dd\L	8ddd\L	.	.
8r	.	.	.	8cc\J	8ccc\J)	.	.
=244	=244	=244	=244	=244	=244	=244	=244
4r	2BB-\ 2B-	.	.	4g/ 4b-	(8gg\L 8bb-X	.	.
.	.	.	.	.	8eee-\J)	.	.
8GGG'/ 8GG	.	.	.	8f#X'/L 8an	8ff#X'\L 8aan	.	.
8r	.	.	.	8f#'/J 8a	8ff#'\J 8aa	.	.
=245	=245	=245	=245	=245	=245	=245	=245
4r	2BBn\ 2Bn	.	.	4fn/ 4a-X	(8ffn\L 8aa-X	.	.
.	.	.	.	.	16gg\L	.	.
.	.	.	.	.	16aa-\JJ	.	.
8GGG'/ 8GG	.	.	.	8b-/L	8bb-\L	.	.
8r	.	.	.	8a-/J	8aa-\J)	.	.
=246	=246	=246	=246	=246	=246	=246	=246
4r	2C\ 2c	.	.	4en/ 4g	(8een\L 8gg	.	.
.	.	.	.	.	8ccc\J)	.	.
8GGG'/ 8GG	.	.	.	8e-X'/L 8f#X	8ee-X'\L 8ff#X	.	.
8r	.	.	.	8e-'/J 8f#	8ee-'\J 8ff#	.	.
=247	=247	=247	=247	=247	=247	=247	=247
4r	2D\ 2d	.	.	(2f/ 2a-X	(8dd\L 8ffn	.	.
.	.	.	.	.	16een\L	.	.
.	.	.	.	.	16ff\JJ	.	.
8GGG'/ 8GG	.	.	.	.	8gg\L	.	.
8r	.	.	.	.	8ff\J)	.	.
!	!	!	!	!LO:LB:g=original	!LO:LB:g=original	!	!
=248	=248	=248	=248	=248	=248	=248	=248
4r	2En\	.	.	2en/ 2g	(8cc#X\L 8een	.	.
.	.	.	.	.	16dd#X\L	.	.
.	.	.	.	.	16ee\JJ	.	.
8GGG'/ 8GG	.	.	.	.	8ffn\L	.	.
8r	.	.	.	.	8ee\J)	.	.
!LO:LB:g=original	!LO:LB:g=original	!	!	!	!	!	!
=249	=249	=249	=249	=249	=249	=249	=249
4r	2F#X\)	.	.	2f#X/)	(8ccn\L 8ee-X	.	.
.	.	.	.	.	16dd\L	.	.
.	.	.	.	.	16ee-\JJ	.	.
8GGG'/ 8GG	.	.	.	.	8ffn\L	.	.
8r	.	.	.	.	8ee-\J)	.	.
=250	=250	=250	=250	=250	=250	=250	=250
4r	16G\LL	.	pp	4g/ 4b-	(8dd\L	.	.
.	16F#X\	.	.	.	.	.	.
.	16G\	.	.	.	8gg\J)	.	.
.	16F#\JJ	.	.	.	.	.	.
8GG'/	16G\LL	.	.	8f#X'/L 8a	8cc#X'\L	.	.
.	16F#\	.	.	.	.	.	.
8r	16G\	.	.	8f#'/J 8a	8cc#'\J	.	.
.	16F#\JJ	.	.	.	.	.	.
=251	=251	=251	=251	=251	=251	=251	=251
*	*	*	*	*^	*	*	*
4r	16G\LL	.	.	2a-X/	4fn\	(8ccn\L	.	.
.	16F#X\	.	.	.	.	.	.	.
.	16G\	.	.	.	.	16bn\L	.	.
.	16F#\JJ	.	.	.	.	16cc\JJ	.	.
8GG'/	16G\LL	.	.	.	4en\	8dd\L	.	.
.	16F#\	.	.	.	.	.	.	.
8r	16G\	.	.	.	.	8cc\J)	.	.
.	16F#\JJ	.	.	.	.	.	.	.
*	*	*	*	*v	*v	*	*	*
=252	=252	=252	=252	=252	=252	=252	=252
4r	16G\LL	.	.	4e-X/ 4g	(8b-X\L	.	.
.	16F#X\	.	.	.	.	.	.
.	16G\	.	.	.	8ee-X\J)	.	.
.	16F#\JJ	.	.	.	.	.	.
8GG'/	16G\LL	.	.	4d/ 4f#X	8an'/L	.	.
.	16F#\	.	.	.	.	.	.
8r	16G\	.	.	.	8a'/J	.	.
.	16F#\JJ	.	.	.	.	.	.
=253	=253	=253	=253	=253	=253	=253	=253
4r	16G\LL	.	.	2d-X/ 2fn	(8a-X/L	.	.
.	16F#X\	.	.	.	.	.	.
.	16G\	.	.	.	16g/L	.	.
.	16F#\JJ	.	.	.	16a-/JJ	.	.
8GG'/	16G\LL	.	.	.	8b-'/L)	.	.
.	16F#\	.	.	.	.	.	.
8r	16G\	.	.	.	8a-'/J	.	.
.	16F#\JJ	.	.	.	.	.	.
!LO:PB:g=original	!LO:PB:g=original	!	!	!LO:PB:g=original	!LO:PB:g=original	!	!
=254	=254	=254	=254	=254	=254	=254	=254
4r	16G\LL	.	.	4c/ 4en	(8g/L	.	.
.	16F#X\	.	.	.	.	.	.
.	16G\	.	.	.	8cc/J)	.	.
.	16F#\JJ	.	.	.	.	.	.
8GG'/	16G\LL	.	.	4c/ 4e-X	8f#X'/L	.	.
.	16F#\	.	.	.	.	.	.
8r	16G\	.	.	.	8f#'/J	.	.
.	16F#\JJ	.	.	.	.	.	.
=255	=255	=255	=255	=255	=255	=255	=255
16GG/LL	4r	.	.	4r	(8fn/L	.	.
16FF#X/	.	.	.	.	.	.	.
16GG/	.	.	.	.	16en/L	.	.
16FF#/JJ	.	.	.	.	16f/JJ	.	.
16GG/LL	8G'\	.	.	8Bn'/ 8d	8g'/L)	.	.
16FF#/	.	.	.	.	.	.	.
16GG/	8r	.	.	8r	8f'/J	.	.
16FF#/JJ	.	.	.	.	.	.	.
=256	=256	=256	=256	=256	=256	=256	=256
16GG/LL	4r	.	.	4r	(8en/L	.	.
16FF#X/	.	.	.	.	.	.	.
16GG/	.	.	.	.	16d#X/L	.	.
16FF#/JJ	.	.	.	.	16e/JJ	.	.
16GG/LL	8G'\	.	.	8B-X'/ 8c#X	8f'/L)	.	.
16FF#/	.	.	.	.	.	.	.
16GG/	8r	.	.	8r	8e'/J	.	.
16FF#/JJ	.	.	.	.	.	.	.
=257	=257	=257	=257	=257	=257	=257	=257
16GG/LL	4r	.	.	4r	(8e-X/L	.	.
16FF#X/	.	.	.	.	.	.	.
16GG/	.	.	.	.	16d/L	.	.
16FF#/JJ	.	.	.	.	16e-/JJ	.	.
16GG/LL	8G'\	.	.	8A'/ 8cn	8f'/L)	.	.
16FF#/	.	.	.	.	.	.	.
16GG/	8r	.	.	8r	8f#X'/J	.	.
16FF#/JJ	.	.	.	.	.	.	.
=258	=258	=258	=258	=258	=258	=258	=258
*ped	*	*	*	*ped	*	*	*
!	!	!	!LO:HP:t=cresc. molto	!LO:TX:t=P:problem=mixed beam	!	!	!LO:HP:t=cresc. molto
16GGG/LL	4r	.	<	16c/LL 16e-	4ryy	.	<
16GG/	.	.	.	16a>\	.	.	.
16GGG/	.	.	.	16c/ 16e-	.	.	.
16GG/JJ	.	.	.	16b->\JJ	.	.	.
!	!	!	!	!LO:TX:t=P:problem=mixed beam	!	!	!
16GGG/LL	16E-\LL 16F#X	.	.	16e-/LL 16f#X	4ryy	.	.
16GG/	16B-\	.	.	16cc>\	.	.	.
16GGG/	16E-\ 16F#	.	.	16e-/ 16f#	.	.	.
16GG/JJ	16B-\JJ	.	.	16dd>\JJ	.	.	.
!LO:LB:g=original	!LO:LB:g=original	!	!	!LO:LB:g=original	!LO:LB:g=original	!	!
=259	=259	=259	=259	=259	=259	=259	=259
!	!	!	!	!LO:TX:t=P:problem=mixed beam	!	!	!
16GGG/LL	16E-\LL 16F#X	.	.	16f#X/LL 16a	4ryy	.	.
16GG/	16c\	.	.	16ee->\	.	.	.
16GGG/	16E-\ 16F#	.	.	16f#/ 16a	.	.	.
16GG/JJ	16c\JJ	.	.	16ffn>\JJ	.	.	.
!	!	!	!	!LO:TX:t=P:problem=mixed beam	!	!	!
16GGG/LL	16E-\LL 16F#	.	.	16a/LL 16cc	4ryy	.	.
16GG/	16c\	.	.	16ff#X>\	.	.	.
16GGG/	16E-\ 16F#	.	.	16a/ 16cc	.	.	.
16GG/JJ	16c\JJ	.	.	16aa>\JJ	.	.	.
=260	=260	=260	=260	=260	=260	=260	=260
!	!	!	!	!LO:TX:t=P:problem=mixed beam	!	!	!
16GGG/LL	16E-\LL 16F#X	.	.	16e-/LL 16f#X	4ryy	.	.
16GG/	16c\	.	.	16b->\ 16bb->	.	.	.
16GGG/	16E-\ 16F#	.	.	16e-/ 16f#	.	.	.
16GG/JJ	16c\JJ	.	.	16cc>\JJ 16ccc>	.	.	.
!	!	!	!	!LO:TX:t=P:problem=mixed beam	!	!	!
16GGG/LL	16E-\LL 16F#	.	.	16f#/LL 16a	4ryy	.	.
16GG/	16c\	.	.	16dd>\ 16ddd>	.	.	.
16GGG/	16E-\ 16F#	.	.	16f#/ 16a	.	.	.
16GG/JJ	16c\JJ	.	.	16ee->\JJ 16eee->	.	.	.
=261	=261	=261	=261	=261	=261	=261	=261
!	!	!	!	!LO:TX:t=P:problem=mixed beam	!	!	!
16GGG/LL	16F#X\LL 16c	.	.	16a/LL 16cc	4ryy	.	.
16GG/	16e-\	.	.	16ffn>\ 16fff>	.	.	.
16GGG/	16F#\ 16c	.	.	16a/ 16cc	.	.	.
16GG/JJ	16e-\JJ	.	.	16ff#X>\JJ 16fff#X>	.	.	.
*	*	*	*	*	*8va	*	*
!	!	!	!	!LO:TX:t=P:problem=mixed beam	!	!	!
16GGG/LL	16F#\LL 16c	.	.	16cc/LL 16ee-X	16ryy	.	.
!	!	!	!	!	!LO:TX:t=P:problem=nuty zapisane rozdzielnie w 2 kernach, żeby 8va obejmowało tylko górny system	!	!
16GG/	16e-\	.	.	16ryy	16aa\LL 16aaa	.	.
16GGG/	16F#\ 16c	.	.	16cc/JJ 16ee-	16ryy	.	.
16GG/JJ	16e-\JJ	.	.	16ryy	16bb-\JJ 16bbb-	.	.
*	*clefG2	*	*	*	*	*	*
=262	=262	=262	=262	=262	=262	=262	=262
!	!	!	!	!LO:TX:t=P:problem=mixed beam	!	!	!
16GGG/LL	16c/LL 16e- 16f#X	.	.	16ee-/LL 16ff#X	16ryy	.	.
16GG/	16a/	.	.	16ryy	16ccc\LL 16cccc	.	.
16GGG/	16c/ 16e- 16f#	.	.	16ee-/JJ 16ff#	16ryy	.	.
16GG/JJ	16a/JJ	.	.	16ryy	16ddd\JJ 16dddd	.	.
!	!	!	!	!LO:TX:t=P:problem=mixed beam	!	!	!
16GGG/LL	16c/LL 16e- 16f#	.	.	16ff#/LL 16aa	16ryy	.	.
16GG/	16a/	.	.	16ryy	16eee-\LL 16eeee-	.	.
16GGG/	16c/ 16e- 16f#	.	.	16ff#/JJ 16aa	16ryy	.	.
16GG/JJ	16a/JJ	.	.	16ryy	16fffn\JJ 16ffffn	.	.
*	*	*	*	*	*X8va	*	*
!	!	!	!	!LO:LB:g=original	!LO:LB:g=original	!	!
=263	=263	=263	=263	=263	=263	=263	=263
*	*	*	*	*	*8va	*	*
!	!	!	!	!LO:TX:t=P:problem=mixed beam	!	!	!
16GGG/LL	16c/LL 16e- 16f#X	.	f	16aa/LL 16ccc	16ryy	.	f
16GG/	16a/	.	.	16ryy	16fff#X\LL 16ffff#X	.	.
16GGG/	16c/ 16e- 16f#	.	.	16aa/JJ 16ccc	16ryy	.	.
16GG/JJ	16a/JJ	.	.	16ryy	16ddd\JJ 16dddd	.	.
!	!	!	!	!LO:TX:t=P:problem=mixed beam	!	!	!
16GGG/LL	16c/LL 16e- 16f#	.	.	16ff#X/LL 16aa	16ryy	.	.
16GG/	16a/	.	.	16ryy	16eee-\LL 16eeee-	.	.
16GGG/	16c/ 16e- 16f#	.	.	16ff#/JJ 16aa	16ryy	.	.
16GG/JJ	16a/JJ	.	.	16ryy	16fffn\JJ 16ffffn	.	.
!LO:LB:g=original	!LO:LB:g=original	!	!	!	!	!	!
=264	=264	=264	=264	=264	=264	=264	=264
!	!	!	!	!LO:TX:t=P:problem=mixed beam	!	!	!
16GGG/LL	16c/LL 16e- 16f#X	.	.	16aa/LL 16ccc	16ryy	.	f
16GG/	16a/	.	.	16ryy	16fff#X\LL 16ffff#X	.	.
16GGG/	16c/ 16e- 16f#	.	.	16aa/JJ 16ccc	16ryy	.	.
16GG/JJ	16a/JJ	.	.	16ryy	16ddd\JJ 16dddd	.	.
!	!	!	!	!LO:TX:t=P:problem=mixed beam	!	!	!
16GGG/LL	16c/LL 16e- 16f#	.	.	16ff#X/LL 16aa	16ryy	.	.
16GG/	16a/	.	.	16ryy	16eee-\LL 16eeee-	.	.
16GGG/	16c/ 16e- 16f#	.	.	16ff#/JJ 16aa	16ryy	.	.
16GG/JJ	16a/JJ	.	.	16ryy	16fffn\JJ 16ffffn	.	.
=265	=265	=265	=265	=265	=265	=265	=265
!	!	!	!	!LO:TX:t=P:problem=mixed beam	!	!	!
16GGG/LL	16c/LL 16e- 16f#X	.	.	16aa/LL 16ccc	16ryy	.	.
16GG/	16a/	.	.	16ryy	16fff#X\LL 16ffff#X	.	.
16GGG/	16c/ 16e- 16f#	.	.	16aa/JJ 16ccc	16ryy	.	.
16GG/JJ	16a/JJ	.	.	16ryy	16ddd\JJ 16dddd	.	.
!	!	!	!	!LO:TX:t=P:problem=mixed beam	!	!	!
16GGG/LL	16c/LL 16e- 16f#	.	.	16ff#X/LL 16aa	16ryy	.	.
16GG/	16a/	.	.	16ryy	16eee-\LL 16eeee-	.	.
16GGG/	16c/ 16e- 16f#	.	.	16ff#/JJ 16aa	16ryy	.	.
*Xped	*	*	*	*	*	*	*
16GG/JJ	16a/JJ	.	.	16ryy	16fff#\JJ 16ffff#	.	.
*	*	*	*	*Xped	*	*	*
=266	=266	=266	=266	=266	=266	=266	=266
!	!LO:TX:b:i:t=marcato	!	!	!	!	!	!
8r	(8d/L	.	p	8r	8r	.	p
!LO:TX:b:t=con 8va. ad libitum.	!	!	!	!	!	!	!
8GG'/	8g/)	.	.	8gg'\L 8bb- 8ddd	8ggg'\L 8bbb- 8dddd 8gggg	.	.
8r	8d'/	.	.	8r	8r	.	.
8DD'/	8d'/J	.	.	8gg'\J 8ccc 8eee-	8ggg'\J 8cccc 8eeee-	.	.
=267	=267	=267	=267	=267	=267	=267	=267
8r	(8d/L	.	.	8r	8r	.	.
8GG'/L	16c#X/L	.	.	8gg'\L 8bb- 8ddd	8ggg'\L 8bbb- 8dddd	.	.
.	16d/JJ	.	.	.	.	.	.
8r	8e-'/L)	.	.	8r	8r	.	.
8DD'/J	8d'/J	.	.	8ee-'\J 8gg 8ccc	8eee-'\J 8ggg 8cccc	.	.
*	*	*	*	*	*X8va	*	*
!	!	!	!	!LO:LB:g=original	!LO:LB:g=original	!	!
=268	=268	=268	=268	=268	=268	=268	=268
*	*	*	*	*	*8va	*	*
8r	(8d/L	.	.	8r	8r	.	.
8GG'/L	8g/)	.	.	8dd'\L 8gg 8bb-	8ddd'\L 8ggg 8bbb-	.	.
8r	8d'/	.	.	8r	8r	.	.
8DD'/J	8d'/J	.	.	8cc'\J 8ee- 8gg	8ccc'\J 8eee- 8ggg	.	.
=269	=269	=269	=269	=269	=269	=269	=269
8r	(8d/L	.	.	8r	8r	.	.
8GG'/L	16c#X/L	.	.	8b-'\L 8dd 8gg	8bb-'\L 8ddd 8ggg	.	.
.	16d/JJ	.	.	.	.	.	.
8r	8e-'/L)	.	.	8r	8r	.	.
8DD'/J	8d'/J	.	.	8g'\J 8cc 8ee-	8gg'\J 8ccc 8eee-	.	.
*	*	*	*	*	*X8va	*	*
!LO:LB:g=original	!LO:LB:g=original	!	!	!	!	!	!
=270	=270	=270	=270	=270	=270	=270	=270
!	!	!	!LO:HP:t=dim.	!	!	!	!
4GG'/	16d/LL	.	>	8r	8r	.	.
.	16e-/	.	.	.	.	.	.
.	16d/	.	.	8g'/L 8b- 8dd	8gg'\L 8bb- 8ddd	.	.
.	16c#X/JJ	.	.	.	.	.	.
8r	16d/LL	.	.	8r	8r	.	.
.	16e-/	.	.	.	.	.	.
8DD'/	16d/	.	.	8g'/J 8cc	8ee-'\J 8gg 8ccc	.	.
.	16c#/JJ	.	.	.	.	.	.
=271	=271	=271	=271	=271	=271	=271	=271
4GG'/	16d/LL	.	.	8r	8r	.	>
.	16e-/	.	.	.	.	.	.
.	16d/	.	.	8g'/L 8dd	8gg'\L 8bb-	.	.
.	16c#X/JJ	.	.	.	.	.	.
8r	16d/LL	.	.	8r	8r	.	.
.	16e-/	.	.	.	.	.	.
8DD'/	16d/	.	.	8g'/J 8cc	8ee-'\J 8gg	.	.
.	16c#/JJ	.	.	.	.	.	.
=272	=272	=272	=272	=272	=272	=272	=272
4GG'/	16d/LL	.	>	8r	8r	.	.
.	16e-/	.	.	.	.	.	.
.	16d/	.	.	8g'/L 8b-	8dd'\L 8gg	.	.
.	16c#X/JJ	.	.	.	.	.	.
4r	16d/LL	.	.	8r	8r	.	.
.	16e-/	.	.	.	.	.	.
.	16d/	.	.	8g'/J 8cc	8ee-'\J 8gg	.	.
.	16c#/JJ	.	.	.	.	.	.
=273	=273	=273	=273	=273	=273	=273	=273
4r	16d/LL	.	.	8r	8r	.	.
.	16e-/	.	.	.	.	.	.
.	16d/	.	.	8g'/L 8b-	8dd'\L 8gg	.	.
.	16c#X/JJ	.	.	.	.	.	.
8r	16d/LL	.	.	8r	8r	.	.
.	16e-/	.	.	.	.	.	.
8GG'/	16d/	.	.	8g'/J 8cc	8ee-'\J 8gg	.	]]
.	16cn/JJ	.	]	.	.	.	.
*	*clefF4	*	*	*	*	*	*
!	!	!	!	!LO:LB:g=original	!LO:LB:g=original	!	!
=274	=274	=274	=274	=274	=274	=274	=274
8BB-'/L	16B-\LL	.	pp	8g'/L	4r	.	pp
.	16c\	.	.	.	.	.	.
8AA'/	16A\	.	.	8d'/J 8a	.	.	.
.	16B-\JJ	.	.	.	.	.	.
8GG'/	16G\LL	.	.	8g'/	8b-'\L	.	.
.	16A\	.	.	.	.	.	.
8FF'/J	16F\	.	.	8r	8a'\J 8dd	.	.
.	16G\JJ	.	.	.	.	.	.
!LO:LB:g=original	!LO:LB:g=original	!	!	!	!	!	!
=275	=275	=275	=275	=275	=275	=275	=275
8EE-'/L	16E-\LL	.	.	8r	8b-'\L 8gg	.	.
.	16F\	.	.	.	.	.	.
8DD'/	16D\	.	.	8d'/L 8a	8dd'\ 8aa	.	.
.	16E-\JJ	.	.	.	.	.	.
8CC'/	16C/LL	.	.	8g'/J 8b-	8gg'\ 8bb-	.	.
.	16D/	.	.	.	.	.	.
8BBB-'/J	16BB-/	.	.	8r	8aa'\J 8ddd	.	.
.	16C/JJ	.	.	.	.	.	.
=276	=276	=276	=276	=276	=276	=276	=276
*	*	*	*	*	*8va	*	*
8AAA'/L	16AA/LL	.	.	8r	8bb-'\L 8ggg	.	.
.	16BB-/	.	.	.	.	.	.
8GGG'/J	16GG/	.	.	8dd'\L 8aa	8ddd'\ 8aaa	.	.
.	16AA/JJ	.	.	.	.	.	.
8GGG'/	16GG/LL	.	.	8gg'\ 8bb-	8ggg'\ 8bbb-	.	.
.	16AA/	.	.	.	.	.	.
8r	16GG/	.	.	8dd'\J 8aa	8ddd'\J 8dddd	.	.
.	16FF#X/JJ	.	.	.	.	.	.
=277	=277	=277	=277	=277	=277	=277	=277
4r	16GG/LL	.	.	8gg'\L 8bb-	8ggg'\L 8bbb-	.	.
.	16AA/	.	.	.	.	.	.
.	16GG/	.	.	8dd'\ 8aa	8ddd'\ 8aaa	.	.
.	16FF#X/JJ	.	.	.	.	.	.
8GGG'/	16GG/LL	.	.	8gg'\ 8bb-	8ggg'\ 8bbb-	.	.
.	16AA/	.	.	.	.	.	.
8r	16GG/	.	.	8dd'\J 8aa	8ddd'\J 8dddd	.	.
.	16FF#/JJ	.	.	.	.	.	.
=278	=278	=278	=278	=278	=278	=278	=278
*ped	*	*	*	*ped	*	*	*
8GGG'/	8GG'/	.	.	8gg'\ 8bb-	8ggg'\ 8bbb-	.	.
8r	8r	.	.	8r	8r	.	.
4r	4r	.	.	4r	4r	.	.
=279	=279	=279	=279	=279	=279	=279	=279
!	!	!	!	!	!LO:TX:b:t=1	!	!
8GGG'/ 8GG	8D'\ 8G 8B- 8d	.	.	2r	2r	.	.
8r	8r	.	.	.	.	.	.
4r	4r	.	.	.	.	.	.
=280	=280	=280	=280	=280	=280	=280	=280
!LO:TX:b:i:t=Fine.	!	!	!	!	!	!	!
2r;>	2r;>	.	.	8dd\ 8gg 8bb- 8ddd	8ggg\ 8bbb- 8dddd 8gggg	.	.
*	*	*	*	*	*X8va	*	*
.	.	.	.	8r	8r	.	.
*Xped	*	*	*	*Xped	*	*	*
.	.	.	.	4r;>	4r;>	.	.
==	==	==	==	==	==	==	==
*-	*-	*-	*-	*-	*-	*-	*-
!!!system-decoration: {(s1,s2)}{(s3,s4)}
!!!RDF**kern: < = below
!!!RDF**kern: > = above
!!!ENC: Andrzej Gręziak
!!!END: 2022-02-28
!!!ENC: Marta Chmielewska
!!!END: 2022-03-03
